!!!!SEGMENT: pl-kk--kk-i-626--001-006_lisinski-karol--vesperae-magnificat.krn
!!!cenid: 18xx:4611
!!!COM: Lisiński, Karol
!!!COM-rismID: pe50053612
!!!CDT:
!!!CNT: Polish
!!!OPR: Vesperae
!!!OTL: Magnificat
!!!OMV: 006
!!!PDT:
!!!AGN: Sacred; Vespers
!!!YEC: Copyright 2022 Narodowy Instytut Fryderyka Chopina (https://polishscores.org)
!!!YEM: License CC-BY-4.0 (https://creativecommons.org/licenses/by/4.0)
!!!SMS-siglum: PL-Kk
!!!SMS-shelfmark: Kk.I.626
!!!SMS-variant: Violino Primo: Kk.I.626: 32-33; Violino Secundo: Kk.I.626: 42-44
!!!SMS-altvar: Violino Primo: Kk.I.626: 27-28; Kk.I.626: Violino Secundo: 37
!!!SMS-shelfwork: 001-006 M
!!!NIFC-rismSourceID: 1001210167
!!!NIFC-rismChildID: 1001210167
!!!NIFC-islandoraID: pl-kk:20059
!!!URL-pdf-islandora: https://repozytorium.nifc.pl/islandora/object/pl-kk:20059/datastream/PDF/view
!!!URL-scan: https://polish.musicsources.pl/pl/lokalizacje/galeria/rekopisy/7260/2 @EN{Scan on Polish Music Sources Website} @PL{Skany w portalu Dziedzictwo Muzyki Polskiej w otwartym dostępie}
!!!IIIF:
!!!ONB-nifc: UWAGA: Części Nieszporów: 1. Dixit Dominus, 2. Confitebor, 3. Beatus vir, 4. Laudate pueri, 5. Laudate Dominum, 6. Magnificat. Gloria wchodzi w ramy ww. części. do Uwaga: Partia Organo na skanach 57-59 i 2. Uwaga: Violino Primo i Secundo wg odpisów spisanych ręką tą samą co reszta partii (s. 29-33 i 39-44). Proszę uzupełnić pola SMS:variant i SMS:altvar.
!!!AIN: 1 alto 1 bass 1 canto 2 clrno 1 organ 1 tenor 1 viole 2 violn
!!!key:
**kern	**kern	**kern	**kern	**dynam	**kern	**text	**kern	**text	**kern	**text	**kern	**text	**kern	**kern
*part10	*part9	*part8	*part7	*part7	*part6	*part6	*part5	*part5	*part4	*part4	*part3	*part3	*part2	*part1
*staff10	*staff9	*staff8	*staff7	*	*staff6	*staff6	*staff5	*staff5	*staff4	*staff4	*staff3	*staff3	*staff2	*staff1
*I"Organo	*I"Violone	*I"Violino Secundo.	*I"Violino Primo.	*	*I"Baſso.	*	*I"Tenore.	*	*I"Alto.	*	*I"Canto	*	*I"Clarino Secundo ex D.	*I"Clarino Primo ex D.
*I'org	*I'vlne	*I'vl 2	*I'vl 1	*	*I'B	*	*I'T	*	*I'A	*	*I'S	*	*I'clno 2 in D	*I'clno 1 in D
*Iorgan	*Iviole	*Ivioln	*Ivioln	*	*Ibass	*	*Itenor	*	*Ialto	*	*Icanto	*	*Iclrno	*Iclrno
*ICklav	*ICstr	*ICstr	*ICstr	*	*ICvox	*	*ICvox	*	*ICvox	*	*ICvox	*	*ICbras	*ICbras
*clefF4	*clefF4	*clefG2	*clefG2	*	*clefF4	*	*clefC4	*	*clefC3	*	*clefC1	*	*clefG2	*clefG2
*	*	*	*	*	*	*	*	*	*	*	*	*	*ITrd-1c-2	*ITrd-1c-2
*k[f#c#]	*k[f#c#]	*k[f#c#]	*k[f#c#]	*	*k[f#c#]	*	*k[f#c#]	*	*k[f#c#]	*	*k[f#c#]	*	*k[f#c#]	*k[f#c#]
*D:	*D:	*D:	*D:	*	*D:	*	*D:	*	*D:	*	*D:	*	*D:	*D:
*M3/4	*M3/4	*M3/4	*M3/4	*	*M3/4	*	*M3/4	*	*M3/4	*	*M3/4	*	*M3/4	*M3/4
=1	=1	=1	=1	=1	=1	=1	=1	=1	=1	=1	=1	=1	=1	=1
!	!LO:TX:b:t=Magnificat	!LO:TX:b:t=Magnificat	!LO:TX:a:t=Poco Vivace	!	!	!	!	!	!	!	!	!	!LO:TX:a:t=ex D	!LO:TX:b:t=Magnificat
!LO:TX:t=P:problem:brakująca partia	!LO:TX:a:i:t=Tut(ti)&colon; viva&colon;	!LO:TX:a:B:t=Poco vivace	!LO:TX:b:t=|	!	!LO:N:vis=00	!	!LO:N:vis=00	!	!LO:N:vis=00	!	!LO:N:vis=00	!	!LO:TX:b:t=Magnificat	!LO:TX:a:t=ex D
2.ryy	8.D\L	8.d/L	8.d/L	.	0.r	.	0.r	.	0.r	.	0.r	.	8dd\L	8dd\L
.	.	.	.	.	.	.	.	.	.	.	.	.	8dd\	8dd\
!	!	!	!LO:TX:b:t=|	!	!	!	!	!	!	!	!	!	!	!
.	16D\K	16d/K	16d/K	.	.	.	.	.	.	.	.	.	.	.
!	!	!	!LO:TX:b:t=|	!	!	!	!	!	!	!	!	!	!	!
.	8D\	8d/	8d/	.	.	.	.	.	.	.	.	.	8dd\	8dd\
!	!	!	!LO:TX:b:t=|	!	!	!	!	!	!	!	!	!	!	!
.	8D\	8d/	8d/	.	.	.	.	.	.	.	.	.	8dd\	8dd\
!	!	!	!LO:TX:b:t=|	!	!	!	!	!	!	!	!	!	!	!
.	8D\	8d/	8d/	.	.	.	.	.	.	.	.	.	8dd\	8dd\
!	!	!	!LO:TX:b:t=|	!	!	!	!	!	!	!	!	!	!	!
.	8D\J	8d/J	8d/J	.	.	.	.	.	.	.	.	.	8dd\J	8dd\J
=2	=2	=2	=2	=2	=2	=2	=2	=2	=2	=2	=2	=2	=2	=2
!	!	!	!LO:TX:b:t=|	!	!	!	!	!	!	!	!	!	!LO:TX:t=P:problem:mixed beam	!LO:TX:t=P:problem:mixed beam
2.ryy	8.A\L	8.a/L	8.a/L	.	.	.	.	.	.	.	.	.	8aa\L	8aa\L
.	.	.	.	.	.	.	.	.	.	.	.	.	8a/	8a/
!	!	!LO:N:vis=8	!LO:TX:b:t=|	!	!	!	!	!	!	!	!	!	!	!
.	16A\Jk	16A/K	16A/K	.	.	.	.	.	.	.	.	.	.	.
*	*tremolo	*	*	*	*	*	*	*	*	*	*	*	*	*
!	!	!	!LO:TX:b:t=|	!	!	!	!	!	!	!	!	!	!	!
.	8AA/L	8A/	8A/	.	.	.	.	.	.	.	.	.	8a/	8a/
!	!	!	!LO:TX:b:t=|	!	!	!	!	!	!	!	!	!	!	!
.	8AA/	8A/	8A/	.	.	.	.	.	.	.	.	.	8a/	8a/
!	!	!	!LO:TX:b:t=|	!	!	!	!	!	!	!	!	!	!	!
.	8AA/	8A/	8A/	.	.	.	.	.	.	.	.	.	8a/	8a/
!	!	!	!LO:TX:b:t=|	!	!	!	!	!	!	!	!	!	!	!
.	8AA/J	8a/J	8A/J	.	.	.	.	.	.	.	.	.	8aa\J	8aa\J
*	*Xtremolo	*	*	*	*	*	*	*	*	*	*	*	*	*
=3	=3	=3	=3	=3	=3	=3	=3	=3	=3	=3	=3	=3	=3	=3
!	!	!	!LO:TX:b:t=|	!	!	!	!	!	!	!	!	!	!	!
2.ryy	8B\L	8b/L	8b/L	.	.	.	.	.	.	.	.	.	8bb\L	8bb\L
!	!	!	!LO:TX:b:t=|	!	!	!	!	!	!	!	!	!	!	!
.	8G\	8g/	8g/	.	.	.	.	.	.	.	.	.	8gg\	8gg\
!	!	!	!LO:TX:b:t=|	!	!	!	!	!	!	!	!	!	!	!
.	8G\	8g/	8g/	.	.	.	.	.	.	.	.	.	8gg\	8gg\
!	!	!	!LO:TX:b:t=|	!	!	!	!	!	!	!	!	!	!	!
.	8G\	8g/	8g/	.	.	.	.	.	.	.	.	.	8gg\	8gg\
!	!	!	!LO:TX:b:t=|	!	!	!	!	!	!	!	!	!	!	!
.	8F#\	8f#/	8f#/	.	.	.	.	.	.	.	.	.	8ff#\	8ff#\
!	!	!	!LO:TX:b:t=|	!	!	!	!	!	!	!	!	!	!	!
.	8E\J	8e/J	8e/J	.	.	.	.	.	.	.	.	.	8ee\J	8ee\J
=4	=4	=4	=4	=4	=4	=4	=4	=4	=4	=4	=4	=4	=4	=4
2.ryy	8A\L	8f#/L	8f#/L	.	.	.	.	.	.	.	.	.	8aa\L	8aa\L
.	8D\J	8d/J	8d/J	.	.	.	.	.	.	.	.	.	8dd\J	8dd\J
!	!	!LO:LB:g=original	!	!	!	!	!	!	!	!	!	!	!	!
.	4A\	4a/	4a/	.	.	.	.	.	.	.	.	.	4aa\	4aa\
.	4AA/	4A/	4A/	.	.	.	.	.	.	.	.	.	4a/	4a/
=5	=5	=5	=5	=5	=5	=5	=5	=5	=5	=5	=5	=5	=5	=5
2.ryy	4D\	4f#/	4a/	.	4D/	Ma-	4d\	Ma-	4f#\	Ma-	4a\	Ma-	4dd\	4dd\
.	4D\	4a/	4ccn\	.	4D/	-gni-	4d\	-gni-	4a\	-gni-	4ccn\	-gni-	4r	4r
.	4D\	4g/	4b\	.	4D/	-fi-	4d\	-fi-	4g\	-fi-	4b\	-fi-	4r	4r
!	!	!	!LO:LB:g=original	!	!	!	!	!	!	!	!	!	!	!
=6	=6	=6	=6	=6	=6	=6	=6	=6	=6	=6	=6	=6	=6	=6
*	*tremolo	*	*	*	*	*	*	*	*	*	*	*	*	*
*	*2\right	*	*	*	*	*	*	*	*	*	*	*	*	*
2.ryy	8D\L	8.f#/L	8.a/L	.	4D/	-cat	4d\	-cat	4f#\	-cat	4a\	-cat	8dd\L	8dd\L
.	8D\	.	.	.	.	.	.	.	.	.	.	.	8dd\	8dd\
.	.	16d/K	16d/K	.	.	.	.	.	.	.	.	.	.	.
.	8D\	8d/	8d/	.	4r	.	4r	.	4r	.	4r	.	8dd\	8dd\
.	8D\	8d/	8d/	.	.	.	.	.	.	.	.	.	8dd\	8dd\
.	8D\	8d/	8d/	.	4r	.	4r	.	4r	.	4r	.	8dd\	8dd\
.	8D\J	8d/J	8d/J	.	.	.	.	.	.	.	.	.	8dd\J	8dd\J
*	*Xtremolo	*	*	*	*	*	*	*	*	*	*	*	*	*
!	!	!	!	!	!	!	!	!	!	!	!	!	!LO:LB:g=original	!LO:LB:g=original
=7	=7	=7	=7	=7	=7	=7	=7	=7	=7	=7	=7	=7	=7	=7
*	*	*	*	*	*	*ij	*	*	*	*ij	*	*	*	*
2.ryy	4A\	4cc#\	4ee\	.	4A\	Ma-	4A\	Ma-	4e\	Ma-	4cc#X\	Ma-	4a/	4ee\
.	4A\	4ee\	4gg\	.	4A\	-gni-	4A\	-gni-	4g\	-gni-	4ee\	-gni-	4ee\	4gg\
.	4A\	4dd\	4ff#\	.	4A\	-fi-	4A\	-fi-	4f#\	-fi-	4dd\	-fi-	4dd\	4ff#\
!	!LO:LB:g=original	!	!	!	!	!	!LO:LB:g=original	!	!	!	!	!	!	!
=8	=8	=8	=8	=8	=8	=8	=8	=8	=8	=8	=8	=8	=8	=8
*	*tremolo	*tremolo	*	*	*	*	*	*	*	*	*	*	*	*
*	*	*2\right	*	*	*	*	*	*	*	*	*	*	*	*
2.ryy	8A\L	8cc#\L	8ee\L	.	4A\	-cat	4A\	-cat	4e\	-cat	4cc#\	-cat	8a/L	8ee\L
.	8A\	8cc#\	8ee\	.	.	.	.	.	.	.	.	.	8a/	8ee\
*	*	*	*	*	*	*Xij	*	*	*	*Xij	*	*	*	*
.	8A\	8cc#\	8ee\	.	4A\	a-	4e\	a-	4e\	a-	4cc#\	a-	8a/	8ee\
.	8A\J	8cc#\	8ee\	.	.	.	.	.	.	.	.	.	8a/	8ee\
.	8A\L	8cc#\	8ee\	.	8A\	-ni-	8e\	-ni-	8a\	-ni-	8cc#\	-ni-	8a/	8ee\
.	8A\J	8cc#\J	8ee\J	.	8A\	-ma	8e\	-ma	8a\	-ma	8cc#\	-ma	8a/J	8ee\J
!	!	!	!	!	!	!	!	!	!LO:LB:g=original	!	!LO:LB:g=original	!	!	!
=9	=9	=9	=9	=9	=9	=9	=9	=9	=9	=9	=9	=9	=9	=9
*	*	*	*	*	*2\right	*	*2\right	*	*2\right	*	*2\right	*	*	*
2.ryy	8G\L	8cc#\L	8ee\L	.	2G\	me-	2c#\	me-	2a\	me-	2ee\	Me-	8ee\L	8aa\L
.	8G\	8cc#\	8ee\	.	.	.	.	.	.	.	.	.	8ee\	8aa\
.	8G\	8cc#\	8ee\	.	.	.	.	.	.	.	.	.	8ee\	8aa\
.	8G\J	8cc#\	8ee\	.	.	.	.	.	.	.	.	.	8ee\	8aa\
.	8G\L	8cc#\	8ee\	.	4G\	-a	4c#\	-a	4a\	-a	4ee\	-a	8ee\	8aa\
.	8G\J	8cc#\J	8ee\J	.	.	.	.	.	.	.	.	.	8ee\J	8aa\J
=10	=10	=10	=10	=10	=10	=10	=10	=10	=10	=10	=10	=10	=10	=10
*	*	*	*	*	*	*	*	*	*	*ij	*	*ij	*	*
2.ryy	8F#\L	8a/L	8ee\L	.	4.F#\	a-	4.A/	a-	4.a\	A-	4ee\	A-	8ee\L	8aa\L
.	8F#\	8a/	8ee\	.	.	.	.	.	.	.	.	.	8ee\	8aa\
.	8F#\	8a/	8dd\	.	.	.	.	.	.	.	8dd\L	-ni-	8dd\	8aa\
.	8F#\J	8a/	8dd\	.	8F#\	-ni-	8A/	-ni-	8a\	-ni-	8cc#\J	.	8dd\	8aa\
.	8F#\L	8a/	8dd\	.	4F#\	-ma	4d\	-ma	4a\	-ma	4dd\	-ma	8dd\	8aa\
.	8F#\J	8a/J	8dd\J	.	.	.	.	.	.	.	.	.	8dd\J	8aa\J
*	*	*Xtremolo	*	*	*	*	*	*	*	*	*	*Xij	*	*
!	!	!LO:LB:g=original	!	!	!	!	!	!	!	!	!	!	!	!
=11	=11	=11	=11	=11	=11	=11	=11	=11	=11	=11	=11	=11	=11	=11
2.ryy	8E\L	8g/L	8dd\L	.	2E\	me-	4B\	me-	2g\	me-	4dd\	me-	8dd\L	8gg\L
.	8E\	8g/	8dd\	.	.	.	.	.	.	.	.	.	8dd\	8gg\
.	8E\	8g/	8cc#\	.	.	.	2c#\	-a	.	.	2cc#\	-a	8ee\	8gg\
.	8E\J	8g/	8cc#\	.	.	.	.	.	.	.	.	.	8ee\	8gg\
.	8A\L	8g/	8cc#\	.	4A\	-a	.	.	4g\	-a	.	.	8ee\	8gg\
.	8A\J	8g/J	8cc#\J	.	.	.	.	.	.	.	.	.	8ee\J	8gg\J
*	*Xtremolo	*	*	*	*	*	*	*	*	*Xij	*	*	*	*
=12	=12	=12	=12	=12	=12	=12	=12	=12	=12	=12	=12	=12	=12	=12
!	!	!	!	!	!	!	!	!	!	!	!	!	!	!LO:TX:t=P:problem:niezgodne piony harmoniczne 2 takty
2.ryy	4D\	8a/L	8dd\L	.	2.D/	Do-	4d\	Do-	2.fn\	Do-	2.dd\	Do-	4dd\	4aa\
.	.	8a/	8ffn\	.	.	.	.	.	.	.	.	.	.	.
.	4D\	8a/	8ff\	.	.	.	2A\	.	.	.	.	.	4dd\	4aa\
.	.	8dd/	8aa\	.	.	.	.	.	.	.	.	.	.	.
.	4D\	8dd/	8aa\	.	.	.	.	.	.	.	.	.	4dd\	4aa\
.	.	8dd/J	8ffn\J	.	.	.	.	.	.	.	.	.	.	.
!LO:LB:g=original	!	!	!LO:LB:g=original	!	!LO:PB:g=original	!	!	!	!	!	!	!	!	!LO:LB:g=original
=13	=13	=13	=13	=13	=13	=13	=13	=13	=13	=13	=13	=13	=13	=13
*	*	*	*	*	*	*	*	*	*	*	*	*	*2\right	*2\right
2.ryy	2.G#X\	8dd\L	8ffn\L	.	2#G\	.	2B\	.	2fn\	.	2dd\	.	2.dd\	2.bb\
.	.	8dd\	8ff\	.	.	.	.	.	.	.	.	.	.	.
.	.	8dd\	8ff\	.	.	.	.	.	.	.	.	.	.	.
.	.	8dd\	8ff\	.	.	.	.	.	.	.	.	.	.	.
.	.	8dd\	8ff\	.	4#xG\	-mi-	4B\	-mi-	4f\	-mi-	4dd\	-mi-	.	.
.	.	8dd\J	8ff\J	.	.	.	.	.	.	.	.	.	.	.
=14	=14	=14	=14	=14	=14	=14	=14	=14	=14	=14	=14	=14	=14	=14
!	!	!	!	!	!	!	!LO:TX:b:t=Verte	!	!	!	!	!	!	!
*	*	*	*2\right	*	*	*	*	*	*	*	*	*	*	*
2.ryy	2.A\	2.cc#\	2.ee\	.	2.A\	-num.	2.A\	-num.	2.e\	-num.	2.cc#\	-num.	2.dd\	2.bb\
!	!LO:LB:g=original	!LO:PB:g=original	!	!	!	!	!LO:PB:g=original	!	!LO:LB:g=original	!	!LO:LB:g=original	!	!	!
=15||	=15||	=15||	=15||	=15||	=15||	=15||	=15||	=15||	=15||	=15||	=15||	=15||	=15||	=15||
*M4/4	*M4/4	*M4/4	*M4/4	*	*M4/4	*	*M4/4	*	*M4/4	*	*M4/4	*	*M4/4	*M4/4
*met(c)	*met(c)	*met(c)	*met(c)	*	*met(c)	*	*met(c)	*	*met(c)	*	*met(c)	*	*met(c)	*met(c)
!	!	!LO:TX:a:B:t=viva(ce)	!LO:TX:a:B:t=All(egr)o.	!	!	!	!	!	!	!	!	!	!LO:TX:b:i:t=Et exultavit	!LO:TX:b:i:t=Et exultavit
!	!LO:TX:a:i:t=vivac(e)&colon; Tut(ti)	!LO:TX:t=P:problem:mixed beam	!LO:TX:t=P:problem:mixed beam	!	!LO:TX:a:B:t=all(egr)o	!	!LO:TX:a:B:t=Allo	!	!LO:TX:a:B:t=Vivace	!	!LO:TX:a:B:t=Vivace	!	!LO:TX:a:B:t=Vivace	!
1ryy	4D\	16dd\LL	16dd\LL	.	4D\	Et	4A/	Et	4f#\	Et	4dd\	Et	4dd\	4ff#\
.	.	16d/	16d/	.	.	.	.	.	.	.	.	.	.	.
.	.	16e/	16e/	.	.	.	.	.	.	.	.	.	.	.
.	.	16f#/JJ	16f#/JJ	.	.	.	.	.	.	.	.	.	.	.
.	8D\L	16g/LL	16g/LL	.	8D\	e-	8A/	e-	8f#\	e-	8dd\	e-	8dd\L	8ff#\L
.	.	16a/	16a/	.	.	.	.	.	.	.	.	.	.	.
.	8D\J	16b/	16b/	.	8D\	-xul-	8A/	-xul-	8f#\	-xul-	8dd\	-xul-	8dd\J	8ff#\J
.	.	16cc#/JJ	16cc#/JJ	.	.	.	.	.	.	.	.	.	.	.
!	!	!LO:TX:t=P:problem:mixed beam	!LO:TX:t=P:problem:mixed beam	!	!	!	!	!	!	!	!	!	!	!
.	4D\	16dd\LL	16dd\LL	.	4D/	-ta-	4A/	-ta-	4f#\	-ta-	4.dd\	-ta-	4dd\	4ff#\
.	.	16d/	16f#/	.	.	.	.	.	.	.	.	.	.	.
.	.	16e/	16g/	.	.	.	.	.	.	.	.	.	.	.
.	.	16f#/JJ	16a/JJ	.	.	.	.	.	.	.	.	.	.	.
.	8D\L	16g/LL	16b\LL	.	4D/	-vit	4A/	-vit	4f#\	-vit	.	.	8dd\L	8ff#\L
.	.	16a/	16cc#\	.	.	.	.	.	.	.	.	.	.	.
.	8D\J	16b/	16dd\	.	.	.	.	.	.	.	8dd\	-vit	8dd\J	8ff#\J
.	.	16cc#/JJ	16ee\JJ	.	.	.	.	.	.	.	.	.	.	.
=16	=16	=16	=16	=16	=16	=16	=16	=16	=16	=16	=16	=16	=16	=16
!	!	!LO:TX:t=P:problem:mixed beam	!LO:TX:t=P:problem:mixed beam	!	!	!	!	!	!	!	!	!	!	!
1ryy	4D\	16dd\LL	16ff#\LL	.	4D/	Spi-	4A/	Spi-	4f#\	Spi-	4dd\	Spi-	4dd\	4ff#\
.	.	16d/	16d/	.	.	.	.	.	.	.	.	.	.	.
.	.	16e/	16e/	.	.	.	.	.	.	.	.	.	.	.
.	.	16d/JJ	16d/JJ	.	.	.	.	.	.	.	.	.	.	.
!	!	!LO:TX:t=P:problem:mixed beam	!LO:TX:t=P:problem:mixed beam	!	!	!	!	!	!	!	!	!	!	!
.	8r	16dd\LL	16ff#\LL	.	8D/	-ri-	8A/	-ri-	8f#\	-ri-	8dd\	-ri-	8r	8r
.	.	16d/	16d/	.	.	.	.	.	.	.	.	.	.	.
.	8D\	16e/	16e/	.	8D/	-tus	8A/	-tus	8f#\	-tus	8dd\	-tus	8dd\	8ff#\
.	.	16d/JJ	16d/JJ	.	.	.	.	.	.	.	.	.	.	.
!	!	!	!LO:LB:g=original	!	!	!	!	!	!	!	!	!	!	!
.	4C#/	16a\LL	16ee\LL	.	8C#/	me-	8c#\	me-	8a\	me-	8ee\	me-	4ee\	4aa\
.	.	16a\	16a\	.	.	.	.	.	.	.	.	.	.	.
.	.	16b\	16b\	.	8C#/	-us	8e\	-us	8a\	-us	8a\	-us	.	.
.	.	16cc#\JJ	16cc#\JJ	.	.	.	.	.	.	.	.	.	.	.
.	8r	16dd\LL	16dd\LL	.	8r	.	8r	.	8r	.	8r	.	8r	4gg#X\
.	.	16ee\	16ee\	.	.	.	.	.	.	.	.	.	.	.
.	8BB/	16ff#\	16ff#\	.	8BB/	in	8d\	in	8f#X\	in	8dd\	in	8dd\	.
.	.	16gg#X\JJ	16gg#X\JJ	.	.	.	.	.	.	.	.	.	.	.
=17	=17	=17	=17	=17	=17	=17	=17	=17	=17	=17	=17	=17	=17	=17
!	!	!LO:TX:t=P:problem:mixed beam	!LO:TX:t=P:problem:mixed beam	!	!	!	!	!	!	!	!	!	!	!
1ryy	4AA/	16aa\LL	16aa\LL	.	8AA/	De-	8e\	De-	8a\	De-	8cc#\	De-	4ee\	4aa\
.	.	16a/	16a/	.	.	.	.	.	.	.	.	.	.	.
.	.	16b/	16b/	.	8AA/	-o	8e\	-o	8a\	-o	8cc#\	-o	.	.
.	.	16cc#/JJ	16cc#/JJ	.	.	.	.	.	.	.	.	.	.	.
!	!	!LO:LB:g=original	!	!	!	!	!	!	!	!	!	!	!	!
.	8r	16dd\LL	16dd/LL	.	8r	.	8r	.	8r	.	8r	.	8r	8r
.	.	16ee\	16ee\	.	.	.	.	.	.	.	.	.	.	.
.	8BB/	16ff#\	16ff#\	.	8BB/	in	8d\	in	8a\	in	8dd\	in	8dd\	8gg#X\
.	.	16gg#X\JJ	16gg#X\JJ	.	.	.	.	.	.	.	.	.	.	.
*	*tremolo	*	*	*	*	*	*	*	*	*	*	*	*	*
!	!	!LO:TX:t=P:problem:mixed beam	!LO:TX:t=P:problem:mixed beam	!	!	!	!LO:LB:g=original	!	!LO:LB:g=original	!	!LO:LB:g=original	!	!	!
.	8C#/L	16aa\LL	16aa\LL	.	8C#/	De-	8c#\	De-	8a\	De-	8ee\	De-	8ee\L	8aa\L
.	.	16a/	16a/	.	.	.	.	.	.	.	.	.	.	.
.	8C#/	16b/	16a/	.	8C#/	-o	8A/	-o	8a\	-o	8ee\	-o	8ee\	8aa\
.	.	16a/JJ	16a/JJ	.	.	.	.	.	.	.	.	.	.	.
!	!	!LO:TX:t=P:problem:mixed beam	!LO:TX:t=P:problem:mixed beam	!	!	!	!	!	!	!	!	!	!	!
.	8C#/	16ee\LL	16aa\LL	.	8C#/	sa-	8A/	sa-	8a\	sa-	8ee\	sa-	8ee\	8aa\
.	.	16a/	16a/	.	.	.	.	.	.	.	.	.	.	.
.	8C#/J	16b/	16b/	.	8C#/	-lu-	8A/	-lu-	8a\	-lu-	8ee\	-lu-	8ee\J	8aa\J
.	.	16a/JJ	16a/JJ	.	.	.	.	.	.	.	.	.	.	.
*	*Xtremolo	*	*	*	*	*	*	*	*	*	*	*	*	*
!	!	!	!	!	!LO:LB:g=original	!	!	!	!	!	!	!	!	!
=18	=18	=18	=18	=18	=18	=18	=18	=18	=18	=18	=18	=18	=18	=18
1ryy	8BB/L	16f#/LL	16dd\LL	.	8BB/L	.	4B\	-ta-	4f#\	-ta-	4dd\	-ta-	4dd\	4bb\
.	.	16f#/	16dd\	.	.	.	.	.	.	.	.	.	.	.
.	8AA/	16f#/	16dd\	.	8AA/J	-ta-	.	.	.	.	.	.	.	.
.	.	16f#/JJ	16dd\JJ	.	.	.	.	.	.	.	.	.	.	.
.	8GG#X/	16e/LL	16dd\LL	.	8GG#X/L	.	4B\	-ri	4e\	-ri	4dd\	-ri	4r	4r
.	.	16e/	16dd\	.	.	.	.	.	.	.	.	.	.	.
.	8FF#/J	16e/	16dd\	.	8FF#/J	-ri	.	.	.	.	.	.	.	.
.	.	16e/JJ	16dd\JJ	.	.	.	.	.	.	.	.	.	.	.
.	4GG#X/	4e/	16bb\LL	.	8GG#X/	me-	8B\	me-	8e\	me-	8dd\	me-	2r	2r
.	.	.	16aa\	.	.	.	.	.	.	.	.	.	.	.
.	.	.	16gg#X\	.	8GG#/	-o	8B\	-o	8e\	-o	8dd\	-o	.	.
.	.	.	16ff#\JJ	.	.	.	.	.	.	.	.	.	.	.
.	8r	8r	16ee\LL	.	8r	.	8r	.	8r	.	8r	.	.	.
.	.	.	16dd\	.	.	.	.	.	.	.	.	.	.	.
.	8G#X\	8e/	16cc#\	.	16G#X\	sa-	16B\	sa-	16e\	sa-	16dd\	sa-	.	.
.	.	.	16b\JJ	.	16G#\	-lu-	16B\	-lu-	16e\	-lu-	16dd\	-lu-	.	.
!	!	!	!LO:LB:g=original	!	!	!	!	!	!	!	!	!	!	!LO:LB:g=original
=19	=19	=19	=19	=19	=19	=19	=19	=19	=19	=19	=19	=19	=19	=19
1ryy	8A\L	16a/LL	16cc#\LL	.	8A\L	-ta-	(8c#\L	-ta-	4e\	-ta-	4cc#\	-ta-	16a/LL	16aa\LL
.	.	16a/	16cc#\	.	.	.	.	.	.	.	.	.	16a/	16aa\
.	8G#X\	16a/	16cc#\	.	8G#X\J	.	8B\J)	.	.	.	.	.	16a/	16aa\
.	.	16a/JJ	16cc#\JJ	.	.	.	.	.	.	.	.	.	16a/JJ	16aa\JJ
.	8F#\	16a/LL	16cc#\LL	.	8F#\L	-ri	(8A\L	-ri	8a\L	-ri	4cc#\	-ri	16a/LL	16aa\LL
.	.	16a/	16cc#\	.	.	.	.	.	.	.	.	.	16a/	16aa\
.	8E\J	16a/	16cc#\	.	8E\J	.	8d\J)	.	8g#X\J	.	.	.	16a/	16aa\
.	.	16a/JJ	16cc#\JJ	.	.	.	.	.	.	.	.	.	16a/JJ	16aa\JJ
!	!LO:LB:g=original	!LO:TX:t=P:problem:mixed beam	!LO:TX:t=P:problem:mixed beam	!	!	!	!	!	!	!	!	!	!	!
.	8F#\L	16aa\LL	16aa\LL	.	8F#\	me-	8c#\	me-	8a\	me-	8cc#\	me-	4a/	4aa\
.	.	16a/	16a/	.	.	.	.	.	.	.	.	.	.	.
.	8F#\	16b/	16b/	.	8F#\	-o	8c#\	-o	8a\	-o	8cc#\	-o	.	.
.	.	16a/JJ	16a/JJ	.	.	.	.	.	.	.	.	.	.	.
!	!	!LO:LB:g=original	!	!	!	!	!	!	!	!	!	!	!	!
!	!	!LO:TX:t=P:problem:mixed beam	!LO:TX:t=P:problem:mixed beam	!	!	!	!LO:LB:g=original	!	!LO:LB:g=original	!	!	!	!	!
*	*	*	*	*	*	*	*	*	*	*ij	*	*	*	*
.	8C#\	16aa\LL	16aa\LL	.	8C#/	sa-	8e\	sa-	8a\	sa-	8cc#\	sa-	4r	4r
.	.	16a/	16a/	.	.	.	.	.	.	.	.	.	.	.
.	8C#\J	16b/	16b/	.	8C#/	-lu-	8d\	-lu-	8a\	-lu-	8cc#\	-lu-	.	.
.	.	16a/JJ	16a/JJ	.	.	.	.	.	.	.	.	.	.	.
!	!	!	!	!	!	!	!	!	!	!	!LO:LB:g=original	!	!LO:LB:g=original	!
=20	=20	=20	=20	=20	=20	=20	=20	=20	=20	=20	=20	=20	=20	=20
!	!LO:TX:t=P:problem:mixed beam	!LO:TX:t=P:problem:mixed beam	!	!	!	!	!	!	!	!	!	!	!	!
1ryy	8D\L	16ff#\LL	16ff#\LL	.	8D/	-ta-	8d\	-ta-	8f#\	-ta-	8a\	-ta-	8ff#\L	8aa\L
.	.	16a/	16a\	.	.	.	.	.	.	.	.	.	.	.
.	8BB\	16b/	16b\	.	8BB/	-ri	8d\	-ri	8f#\	-ri	16dd\LL	-ri	8ff#\	8aa\
.	.	16a/JJ	16a\JJ	.	.	.	.	.	.	.	16cc#\JJ	.	.	.
!	!	!	!	!	!LO:TX:t=P:problem:mixed beam	!	!	!	!	!	!	!	!	!
.	8E\	8.g#X/L	8.g#X/L	.	8E/L	me-	4B\	me-	4e\	me-	4b\	me-	8ee\	8.gg#X\
.	8EE/J	.	.	.	8EE\J	.	.	.	.	.	.	.	8ee\J	.
.	.	16g#t/Jk	16g#/Jk	.	.	.	.	.	.	.	.	.	.	16aa\Jk
.	4AA/	16a/LL	16a/LL	.	4AA/	-o	4c#\	-o	4e\	-o	4a\	-o	4ee\	4aa\
.	.	16A/	16A/	.	.	.	.	.	.	.	.	.	.	.
.	.	16B/	16B/	.	.	.	.	.	.	.	.	.	.	.
.	.	16c#/JJ	16c#/JJ	.	.	.	.	.	.	.	.	.	.	.
.	8r	16d/LL	16d/LL	.	8r	.	8r	.	8r	.	8r	.	8r	8r
.	.	16e/	16e/	.	.	.	.	.	.	.	.	.	.	.
*	*	*	*	*	*	*	*	*	*	*Xij	*	*	*	*
.	8BB/	16f#/	16f#/	.	8BB/	Qu-	8d\	qu-	8g#X\	qu-	8dd\	qu-	8dd\	8gg#X\
.	.	16g#/JJ	16g#X/JJ	.	.	.	.	.	.	.	.	.	.	.
=21	=21	=21	=21	=21	=21	=21	=21	=21	=21	=21	=21	=21	=21	=21
1ryy	4C#/	16a/LL	16a/LL	.	4C#/	-ia	4c#\	-ia	4a\	-ia	4ee\	-ia	4ee\	4aa\
.	.	16c#/	16e/	.	.	.	.	.	.	.	.	.	.	.
.	.	16d/	16f#/	.	.	.	.	.	.	.	.	.	.	.
.	.	16e/JJ	16g/JJ	.	.	.	.	.	.	.	.	.	.	.
.	8r	16f#/LL	16a\LL	.	8r	.	8r	.	8r	.	8r	.	8r	8r
.	.	16g/	16b\	.	.	.	.	.	.	.	.	.	.	.
.	8BB/	16a/	16cc#\	.	8BB/	res-	8d\	res-	8g#X\	res-	8dd\	res-	8dd\	8gg#X\
.	.	16b/JJ	16dd\JJ	.	.	.	.	.	.	.	.	.	.	.
!	!	!	!LO:LB:g=original	!	!	!	!	!	!	!	!	!	!	!
.	8AA/L	16cc#\LL	16ee\LL	.	8AA/	-pe-	8e\	-pe-	8a\	-pe-	8cc#\	-pe-	8ee\L	8aa\L
.	.	16a\	16a\	.	.	.	.	.	.	.	.	.	.	.
!	!	!	!	!	!LO:LB:g=original	!	!	!	!	!	!	!	!	!
.	8AA/	16b\	16b\	.	16AA/	-xit	16e\	-xit	16a\	-xit	16cc#\	-xit	8ee\	8aa\
.	.	16a\JJ	16a\JJ	.	16AA/	hu-	16e\	hu-	16a\	hu-	16cc#\	hu-	.	.
.	8C#/	16ee\LL	16ggn\LL	.	8C#/	-mi-	8e\	-mi-	8a\	-mi-	8ee\	-mi-	8ee\	8gg\
.	.	16a\	16a\	.	.	.	.	.	.	.	.	.	.	.
.	8C#/J	16b\	16b\	.	8C#/	-li-	8c#\	-li-	8a\	-li-	8ee\	-li-	8ee\J	8gg\J
.	.	16a\JJ	16a\JJ	.	.	.	.	.	.	.	.	.	.	.
!	!	!	!	!	!	!	!LO:LB:g=original	!	!LO:LB:g=original	!	!	!	!	!
=22	=22	=22	=22	=22	=22	=22	=22	=22	=22	=22	=22	=22	=22	=22
!	!	!LO:TX:t=P:problem:mixed beam	!LO:TX:t=P:problem:mixed beam	!	!	!	!	!	!	!	!	!	!	!
1ryy	4D\	16ff#\LL	16ff#\LL	.	8D/	-ta-	8A/	-ta-	8a\	-ta-	8ff#\	-ta-	4dd\	4ff#\
.	.	16d/	16d/	.	.	.	.	.	.	.	.	.	.	.
.	.	16e/	16e/	.	8D/	-tem	8A/	-tem	8a\	-tem	8dd\	-tem	.	.
.	.	16f#/JJ	16f#/JJ	.	.	.	.	.	.	.	.	.	.	.
.	8r	16g/LL	16g/LL	.	8r	.	8r	.	8r	.	8r	.	8r	8r
.	.	16a/	16a/	.	.	.	.	.	.	.	.	.	.	.
!	!	!	!	!	!	!	!	!	!	!	!	!	!LO:TX:t=P:problem:brakujący dźwięk?	!LO:TX:t=P:problem:niezgodny pion harm.
.	8E\	16b/	16b/	.	8E\	an-	8c#\	an-	8fn\	an-	8cc#\	an-	8ryy	8gg\
.	.	16cc#/JJ	16cc#/JJ	.	.	.	.	.	.	.	.	.	.	.
!	!	!LO:LB:g=original	!	!	!	!	!	!	!	!	!LO:LB:g=original	!	!	!
.	4F#\	16dd\LL	16dd\LL	.	8F#\	-cil-	8A/	-cil-	8f\	-cil-	8dd\	-cil-	4a/	4aa\
.	.	16f#\	16a\	.	.	.	.	.	.	.	.	.	.	.
.	.	16g\	16b\	.	8F#\	-lae	8A/	-lae	8f\	-lae	8dd\	-lae	.	.
.	.	16a\JJ	16cc#\JJ	.	.	.	.	.	.	.	.	.	.	.
.	8r	16b\LL	16dd\LL	.	8r	.	8r	.	8r	.	8r	.	8r	8r
.	.	16cc#\	16ee\	.	.	.	.	.	.	.	.	.	.	.
*	*	*	*	*	*	*ij	*	*	*	*	*	*	*	*
.	8C#/	16dd\	16ff#\	.	8C#/	an-	8A/	su-	8a\L	su-	8ee\L	su-	8ee\	8aa\
.	.	16ee\JJ	16gg\JJ	.	.	.	.	.	.	.	.	.	.	.
!	!	!	!	!	!	!	!	!	!	!	!	!	!	!LO:LB:g=original
=23	=23	=23	=23	=23	=23	=23	=23	=23	=23	=23	=23	=23	=23	=23
1ryy	4D\	8ff#\L	16ff#\LL	.	8D/	-cil-	8A/	.	8f#\J	.	8dd\J	.	8ff#\L	8aa\L
.	.	.	16dd\	.	.	.	.	.	.	.	.	.	.	.
.	.	8ff#\	16ee\	.	8D/	-lae	8A/	-ae	8f#\	-ae	8dd\	-ae	8ff#\J	8aa\J
.	.	.	16ff#\JJ	.	.	.	.	.	.	.	.	.	.	.
.	8r	8ff#\	16gg\LL	.	8r	.	8r	.	8r	.	8r	.	8r	8r
.	.	.	16aa\	.	.	.	.	.	.	.	.	.	.	.
*	*	*	*	*	*	*Xij	*	*	*	*	*	*	*	*
.	8E\	8gg\J	16bb\	.	16E\	ec-	16c#\	ec-	16g\	ec-	16cc#\	ec-	8ee\	8gg\
.	.	.	16ccc#\JJ	.	16E\	-ce	16c#\	-ce	16g\	-ce	16cc#\	-ce	.	.
!	!	!LO:TX:t=P:problem:mixed beam	!	!	!	!	!	!	!	!	!	!	!	!
.	8F#\L	8aa\L	16ddd\LL	.	8F#\	e-	8A/	e-	8a\	e-	16dd\	e-	8dd\L	8ff#\L
.	.	.	16dd\	.	.	.	.	.	.	.	16dd\	-nim	.	.
!	!	!	!	!	!	!	!	!	!	!	!LO:N:vis=8.	!	!	!
.	8F#\	8a/	16ee\	.	16F#\	-nim	16A/	-nim	16a\	-nim	4dd\	ex	8dd\	8gg\
.	.	.	16dd\JJ	.	16F#\	ex	16A/	ex	16a\	ex	.	.	.	.
.	8G\	8b/	16ddd\LL	.	8G\	hoc	8B\	hoc	8g\	hoc	.	.	8ee\	8bb\
.	.	.	16dd\	.	.	.	.	.	.	.	.	.	.	.
.	8G\J	8cc#/J	16ee\	.	8G\	be-	8B\	be-	8g\	be-	16ee\LL	hoc	8ff#\J	8bb\J
.	.	.	16dd\JJ	.	.	.	.	.	.	.	16dd\JJ	be-	.	.
!	!	!	!LO:LB:g=original	!	!	!	!	!	!LO:LB:g=original	!	!	!	!	!
=24	=24	=24	=24	=24	=24	=24	=24	=24	=24	=24	=24	=24	=24	=24
1ryy	8A\L	8e/L	16cc#\LL	.	8A\	-a-	8G/	-a-	8e\	-a-	16cc#\LL	-a-	8a/L	8ee\L
.	.	.	16a\	.	.	.	.	.	.	.	16a\JJ	.	.	.
.	8A\	8e/J	16aa\	.	16A\	-tam	16G/	-tam	16e\	-tam	16dd\LL	-tam	8a/J	8aa\J
.	.	.	16a\JJ	.	16A\	me-	16G/	me-	16e\	me-	16ff#\JJ	.	.	.
.	8F#\	16f#/LL	16dd\LL	.	8F#\	-di-	8A/	-di-	8f#\	-di-	16ee\LL	me-	16dd\LL	16ff#\LL
.	.	16a/	16ff#\	.	.	.	.	.	.	.	16dd\JJ	.	16ff#\	16aa\
.	8G\J	16g/	16ee\	.	8G\	-cent	8B\	-cent	8b\	-cent	8cc#\	-di-	16ee\	16gg\
.	.	16f#/JJ	16dd\JJ	.	.	.	.	.	.	.	.	.	16dd\JJ	16ff#\JJ
!	!LO:LB:g=original	!	!	!	!LO:LB:g=original	!	!	!	!	!	!LO:LB:g=original	!	!	!
.	8A\L	8e/L	16cc#\LL	.	8A\	om-	8c#\	om-	8a\	om-	8a\	-cent	8a/L	8ee\L
.	.	.	16a\	.	.	.	.	.	.	.	.	.	.	.
.	8A\	8e/J	16aa\	.	8A\	-nes	8e\	-nes	8a\	-nes	8dd\	om-	8ee/J	8aa\J
.	.	.	16a\JJ	.	.	.	.	.	.	.	.	.	.	.
.	8F#\	16f#/LL	16dd\LL	.	8F#\	ge-	8d\	ge-	8a\	ge-	16ff#\	-nes	16dd\LL	16ff#\LL
.	.	16a/	16ff#\	.	.	.	.	.	.	.	16ee\	ge-	16ff#\	16aa\
.	8G\J	16g/	16ee\	.	8G\	-ne-	8B\	-ne-	8b\	-ne-	8dd\	-ne-	16ee\	16gg\
.	.	16f#/JJ	16dd\JJ	.	.	.	.	.	.	.	.	.	16dd\JJ	16ff#\JJ
!	!	!	!	!	!	!	!	!	!	!	!	!	!LO:LB:g=original	!
=25	=25	=25	=25	=25	=25	=25	=25	=25	=25	=25	=25	=25	=25	=25
!	!LO:TX:t=P:problem:mixed beam	!	!	!	!	!	!	!	!	!	!	!	!	!
1ryy	8A\L	8e/L	8cc#\L	.	8A\	-ra-	8A/	-ra-	8e\	-ra-	8cc#\	-ra-	8a/L	8ee\L
.	8D\	8f#/J	8dd\	.	8D/	-ti-	8A/	-ti-	8f#\	-ti-	8dd\	-ti-	8dd/	8ff#\J
!	!	!	!	!	!LO:TX:t=P:problem:mixed beam	!	!	!	!	!	!	!	!	!
.	8A\	4eT/	8dd\	.	8A\L	-o-	4A/	-o-	4e\	-o-	8dd\L	-o-	8dd/	4ee\
.	8AA/J	.	8cc#\J	.	8AA/J	.	.	.	.	.	8cc#\J	.	8a/J	.
.	4D\	4f#/	4dd\	.	4D/	-nes	4A/	-nes.	4f#\	-nes.	4dd\	-nes	4f#/	4dd\
.	4r	4r	4r	.	4r	.	4r	.	4r	.	4r	.	4r	4r
!	!LO:PB:g=original	!LO:LB:g=original	!LO:PB:g=original	!	!	!	!LO:LB:g=original	!	!LO:LB:g=original	!	!LO:PB:g=original	!	!	!
==26	==26	==26	==26	==26	==26	==26	==26	==26	==26	==26	==26	==26	==26	==26
*k[f#c#g#]	*k[f#c#g#]	*k[f#c#g#]	*k[f#c#g#]	*	*k[f#c#g#]	*	*k[f#c#g#]	*	*k[c#f#g#]	*	*k[f#c#g#]	*	*k[f#c#g#]	*k[f#c#g#]
*M4/4	*M4/4	*M4/4	*M4/4	*	*M4/4	*	*M4/4	*	*M4/4	*	*M4/4	*	*M4/4	*M4/4
*met(c)	*met(c)	*met(c)	*met(c)	*	*met(c)	*	*met(c)	*	*met(c)	*	*met(c)	*	*met(c)	*met(c)
!	!	!	!	!	!	!	!	!	!	!	!	!	!	!LO:TX:a:i:t=Quia Fecit\nTacet
!	!LO:TX:a:i:t=Andan(te)&colon; Solo	!	!LO:TX:a:t=Col sordi dolce	!	!LO:TX:a:i:t=Quia fecit\nTacet	!	!LO:TX:a:i:t=Q via fecit Tacet	!	!LO:TX:a:B:t=Largo	!	!LO:TX:a:B:t=Adagio	!	!LO:TX:a:i:t=Quia Fecit Tacet	!
1ryy	8A\L	8c#/L	[4ee\	.	1ryy	.	1ryy	.	00r	.	00r	.	1ryy	1ryy
.	8B\	8d/	.	.	.	.	.	.	.	.	.	.	.	.
.	8c#\	8e/	16ee\LL]	.	.	.	.	.	.	.	.	.	.	.
.	.	.	32ff#\L	.	.	.	.	.	.	.	.	.	.	.
.	.	.	32gg#\J	.	.	.	.	.	.	.	.	.	.	.
.	8A\J	8a/J	16aa\	.	.	.	.	.	.	.	.	.	.	.
.	.	.	16cc#\JJ	.	.	.	.	.	.	.	.	.	.	.
.	4B\	4f#/	[4dd\	.	.	.	.	.	.	.	.	.	.	.
.	8G#\L	8e/L	16dd\LL]	.	.	.	.	.	.	.	.	.	.	.
.	.	.	32cc#\L	.	.	.	.	.	.	.	.	.	.	.
.	.	.	32dd\J	.	.	.	.	.	.	.	.	.	.	.
.	8E\J	8g#/J	16ee\	.	.	.	.	.	.	.	.	.	.	.
.	.	.	16dd\JJ	.	.	.	.	.	.	.	.	.	.	.
=27	=27	=27	=27	=27	=27	=27	=27	=27	=27	=27	=27	=27	=27	=27
1ryy	4A\	4e/	16cc#/LL	.	1ryy	.	1ryy	.	.	.	.	.	1ryy	1ryy
.	.	.	16a/	.	.	.	.	.	.	.	.	.	.	.
.	.	.	16e/	.	.	.	.	.	.	.	.	.	.	.
.	.	.	16c#/JJ	.	.	.	.	.	.	.	.	.	.	.
!	!	!	!LO:TX:t=P:problem:mixed beam	!	!	!	!	!	!	!	!	!	!	!
.	8r	8r	8A/L	.	.	.	.	.	.	.	.	.	.	.
.	8A\	8e/	8cc#\J	.	.	.	.	.	.	.	.	.	.	.
.	4G#\	4b\	16dd/LL	.	.	.	.	.	.	.	.	.	.	.
.	.	.	16b/	.	.	.	.	.	.	.	.	.	.	.
.	.	.	16g#/	.	.	.	.	.	.	.	.	.	.	.
.	.	.	16e/JJ	.	.	.	.	.	.	.	.	.	.	.
!	!	!	!LO:TX:t=P:problem:mixed beam	!	!	!	!	!	!	!	!	!	!	!
.	8r	8r	8G#/L	.	.	.	.	.	.	.	.	.	.	.
.	8G#\	8b\	8dd\J	.	.	.	.	.	.	.	.	.	.	.
=28	=28	=28	=28	=28	=28	=28	=28	=28	=28	=28	=28	=28	=28	=28
1ryy	4A\	4e/	16cc#/LL	.	1ryy	.	1ryy	.	.	.	.	.	1ryy	1ryy
.	.	.	16a/	.	.	.	.	.	.	.	.	.	.	.
.	.	.	16e/	.	.	.	.	.	.	.	.	.	.	.
.	.	.	16c#/JJ	.	.	.	.	.	.	.	.	.	.	.
!	!	!	!LO:TX:t=P:problem:mixed beam	!	!	!	!	!	!	!	!	!	!	!
.	8r	8r	8A/L	.	.	.	.	.	.	.	.	.	.	.
.	8A\	8e/	8cc#\J	.	.	.	.	.	.	.	.	.	.	.
!	!	!	!LO:LB:g=original	!	!	!	!	!	!	!	!	!	!	!
.	4D\	4e/	8.cc#\L	.	.	.	.	.	.	.	.	.	.	.
.	.	.	32dd\LL	.	.	.	.	.	.	.	.	.	.	.
.	.	.	32ee\JJJ	.	.	.	.	.	.	.	.	.	.	.
.	8r	8r	16ff#\LL	.	.	.	.	.	.	.	.	.	.	.
.	.	.	16b\	.	.	.	.	.	.	.	.	.	.	.
.	8D#X\	8f#/	16b\	.	.	.	.	.	.	.	.	.	.	.
.	.	.	16a\JJ	.	.	.	.	.	.	.	.	.	.	.
=29	=29	=29	=29	=29	=29	=29	=29	=29	=29	=29	=29	=29	=29	=29
1ryy	8E\L	8e/L	8g#/L	.	1ryy	.	1ryy	.	.	.	.	.	1ryy	1ryy
.	8E\	8g#/	8e/J	.	.	.	.	.	.	.	.	.	.	.
.	8G#\	8b/	8r	.	.	.	.	.	.	.	.	.	.	.
.	8E\J	8g#/J	8e/	.	.	.	.	.	.	.	.	.	.	.
.	4r	4r	16e/LL	.	.	.	.	.	.	.	.	.	.	.
.	.	.	32f#/L	.	.	.	.	.	.	.	.	.	.	.
.	.	.	32g#/J	.	.	.	.	.	.	.	.	.	.	.
.	.	.	16a'/	.	.	.	.	.	.	.	.	.	.	.
.	.	.	16a'/JJ	.	.	.	.	.	.	.	.	.	.	.
.	8r	16e/LL	16g#/LL	.	.	.	.	.	.	.	.	.	.	.
.	.	32f#/L	32a/L	.	.	.	.	.	.	.	.	.	.	.
.	.	32g#/J	32b/J	.	.	.	.	.	.	.	.	.	.	.
.	8A\	16a'/	16cc#'/	.	.	.	.	.	.	.	.	.	.	.
.	.	16a'/JJ	16cc#'/JJ	.	.	.	.	.	.	.	.	.	.	.
!	!LO:LB:g=original	!LO:LB:g=original	!	!	!	!	!	!	!	!	!	!	!	!
=30	=30	=30	=30	=30	=30	=30	=30	=30	=30	=30	=30	=30	=30	=30
1ryy	8E\L	16g#/LL	16b\LL	.	1ryy	.	1ryy	.	00r	.	0r	.	1ryy	1ryy
.	.	32a/L	32cc#\L	.	.	.	.	.	.	.	.	.	.	.
.	.	32b/J	32dd\J	.	.	.	.	.	.	.	.	.	.	.
.	8A\J	16cc#'/	16ee'\	.	.	.	.	.	.	.	.	.	.	.
.	.	16cc#'/JJ	16ee'\JJ	.	.	.	.	.	.	.	.	.	.	.
.	8D\L	16cc#/LL	16ee\LL	.	.	.	.	.	.	.	.	.	.	.
.	.	16b/	16dd\	.	.	.	.	.	.	.	.	.	.	.
.	8E\J	16b/	16dd\	.	.	.	.	.	.	.	.	.	.	.
.	.	16g#/JJ	16b\JJ	.	.	.	.	.	.	.	.	.	.	.
!	!LO:TX:t=P:problem:mixed beam	!	!	!	!	!	!	!	!	!	!	!	!	!
.	8.A\L	8a/L	8cc#\L	.	.	.	.	.	.	.	.	.	.	.
.	.	8c#/J	16a\L	.	.	.	.	.	.	.	.	.	.	.
.	16AA/Jk	.	16e\JJ	.	.	.	.	.	.	.	.	.	.	.
!	!	!	!LO:LB:g=original	!	!	!	!	!	!	!	!	!	!	!
.	8D\L	16c#/LL	(16e/LL	.	.	.	.	.	.	.	.	.	.	.
.	.	16B/	16d/	.	.	.	.	.	.	.	.	.	.	.
.	8E\J	16B/	16d/	.	.	.	.	.	.	.	.	.	.	.
.	.	16G#/JJ	16B/JJ)	.	.	.	.	.	.	.	.	.	.	.
=31	=31	=31	=31	=31	=31	=31	=31	=31	=31	=31	=31	=31	=31	=31
1ryy	8A\L	16A/LL	16c#/LL	.	1ryy	.	1ryy	.	.	.	.	.	1ryy	1ryy
.	.	16c#/	16e/	.	.	.	.	.	.	.	.	.	.	.
.	8D\	16f#/	16a/	.	.	.	.	.	.	.	.	.	.	.
.	.	16f#/JJ	16b/JJ	.	.	.	.	.	.	.	.	.	.	.
.	8E\	8B/L	16g#/LL	.	.	.	.	.	.	.	.	.	.	.
.	.	.	16e/	.	.	.	.	.	.	.	.	.	.	.
.	8D\J	8c#/J	16a/	.	.	.	.	.	.	.	.	.	.	.
.	.	.	16b/JJ	.	.	.	.	.	.	.	.	.	.	.
.	4E\	4c#/	4a/	.	.	.	.	.	.	.	.	.	.	.
.	4EE/	4B/	4g#m/	.	.	.	.	.	.	.	.	.	.	.
=32	=32	=32	=32	=32	=32	=32	=32	=32	=32	=32	=32	=32	=32	=32
!	!LO:TX:t=P:problem:signum	!	!	!LO:DY:a:t=pia	!	!	!	!	!	!	!	!	!	!
1ryy	8AA/L	4c#/	8a\L	p	1ryy	.	1ryy	.	.	.	4.ee\	Qu-	1ryy	1ryy
.	8C#/	.	8ee\	.	.	.	.	.	.	.	.	.	.	.
.	8BB/	8r	8ee\	.	.	.	.	.	.	.	.	.	.	.
.	8AA/J	8d/	16ff#\L	.	.	.	.	.	.	.	16ff#\LL	-ia	.	.
.	.	.	16gg#\JJ	.	.	.	.	.	.	.	16gg#\JJ	.	.	.
!	!	!	!LO:TX:t=P:problem:mixed beam	!	!	!	!	!	!	!	!	!	!	!
.	4AA/	4c#/	8aa\L	.	.	.	.	.	.	.	8aa\	fe-	.	.
.	.	.	8a/J	.	.	.	.	.	.	.	8cc#\	-cit	.	.
!	!	!	!LO:TX:t=P:problem:mixed beam	!	!	!	!	!	!	!	!	!	!	!
.	8r	8r	8A/L	.	.	.	.	.	.	.	8r	.	.	.
.	8AA/	8e/	8cc#\J	.	.	.	.	.	.	.	16cc#\	qu-	.	.
.	.	.	.	.	.	.	.	.	.	.	16cc#\	-ia	.	.
=33	=33	=33	=33	=33	=33	=33	=33	=33	=33	=33	=33	=33	=33	=33
1ryy	4AA/	4f#/	8.dd\L	.	1ryy	.	1ryy	.	.	.	8.dd\	fe-	1ryy	1ryy
.	.	.	32cc#\LL	.	.	.	.	.	.	.	32cc#\LLL	-cit	.	.
.	.	.	32dd\JJJ	.	.	.	.	.	.	.	32dd\JJJ	.	.	.
.	4GG#/	4e/	8ee\L	.	.	.	.	.	.	.	8ee\	mi-	.	.
.	.	.	8dd\	.	.	.	.	.	.	.	8dd\	-hi	.	.
.	8AA/L	8e/L	8cc#\	.	.	.	.	.	.	.	8cc#\	mag-	.	.
.	8BB/	8e/	8a\J	.	.	.	.	.	.	.	8a\	-na	.	.
!	!	!	!LO:TX:t=P:problem:mixed beam	!	!	!	!	!	!	!	!	!	!	!
.	8C#/	8e/	8A/L	.	.	.	.	.	.	.	8r	.	.	.
.	8AA/J	8e/J	8cc#\J	.	.	.	.	.	.	.	8cc#\	qui	.	.
!	!	!LO:LB:g=original	!LO:LB:g=original	!	!	!	!	!	!	!	!LO:LB:g=original	!	!	!
=34	=34	=34	=34	=34	=34	=34	=34	=34	=34	=34	=34	=34	=34	=34
1ryy	4AA/	8e/L	8.cc#\L	.	1ryy	.	1ryy	.	00r	.	8.cc#\	po-	1ryy	1ryy
.	.	8a/J	.	.	.	.	.	.	.	.	.	.	.	.
!	!	!	!	!	!	!	!	!	!	!	!LO:N:vis=16	!	!	!
.	.	.	32dd\LL	.	.	.	.	.	.	.	32dd\LLL	-tens	.	.
!	!	!	!	!	!	!	!	!	!	!	!LO:N:vis=16	!	!	!
.	.	.	32ee\JJJ	.	.	.	.	.	.	.	32ee\JJJ	.	.	.
.	8r	8.a\L	8ff#\L	.	.	.	.	.	.	.	8ff#\	est	.	.
.	8D\	.	8ff#\J	.	.	.	.	.	.	.	8ff#\	et	.	.
.	.	32b\LL	.	.	.	.	.	.	.	.	.	.	.	.
.	.	32cc#\JJJ	.	.	.	.	.	.	.	.	.	.	.	.
.	4A\	8.dd\L	8.ff#\L	.	.	.	.	.	.	.	8.ff#\	San-	.	.
!	!	!	!	!	!	!	!	!	!	!	!LO:N:vis=16	!	!	!
.	.	32cc#\LL	32ee\LL	.	.	.	.	.	.	.	32ee\LLL	.	.	.
!	!	!	!	!	!	!	!	!	!	!	!LO:N:vis=16	!	!	!
.	.	32b\JJJ	32dd\JJJ	.	.	.	.	.	.	.	32dd\JJJ	.	.	.
!	!LO:LB:g=original	!	!	!	!	!	!	!	!	!	!	!	!	!
.	8r	8cc#\L	8ee\L	.	.	.	.	.	.	.	8ee\	-ctum	.	.
.	8E\	8b\J	8dd\J	.	.	.	.	.	.	.	8dd\	no-	.	.
=35	=35	=35	=35	=35	=35	=35	=35	=35	=35	=35	=35	=35	=35	=35
!	!LO:TX:t=P:problem:mixed beam	!	!	!	!	!	!	!	!	!	!	!	!	!
1ryy	8A\L	4a/	8cc#\L	.	1ryy	.	1ryy	.	.	.	8cc#\	-men	1ryy	1ryy
.	8AA\J	.	16b\L	.	.	.	.	.	.	.	16b\LL	San-	.	.
.	.	.	16cc#\JJ	.	.	.	.	.	.	.	16cc#\JJ	-ctu(m)	.	.
.	8E\L	8b/L	8dd\L	.	.	.	.	.	.	.	8dd\	no-	.	.
.	8A\J	8a/J	8cc#\J	.	.	.	.	.	.	.	8cc#\	-men	.	.
!	!	!	!LO:TX:t=P:problem:mixed beam	!	!	!	!	!	!	!	!	!	!	!
.	8E\L	4g#/	8b\L	.	.	.	.	.	.	.	8b\	e-	.	.
.	8E\	.	8e/	.	.	.	.	.	.	.	8e/	-jus	.	.
.	8G#\	8r	8e/	.	.	.	.	.	.	.	8r	.	.	.
.	8D#X\J	8f#/	8b\J	.	.	.	.	.	.	.	8b\	no-	.	.
!	!	!	!	!	!	!	!	!	!	!	!LO:LB:g=original	!	!	!
=36	=36	=36	=36	=36	=36	=36	=36	=36	=36	=36	=36	=36	=36	=36
!	!LO:TX:t=P:problem:mixed beam	!	!	!	!	!	!	!	!	!	!	!	!	!
1ryy	8E\L	4e/	4b\	.	1ryy	.	1ryy	.	.	.	8g#/L	-men	1ryy	1ryy
.	8A\	.	.	.	.	.	.	.	.	.	8f#/J	.	.	.
.	8B\	4r	4r	.	.	.	.	.	.	.	4f#/	e-	.	.
.	8BB\J	.	.	.	.	.	.	.	.	.	.	.	.	.
!	!	!	!	!LO:DY:a:t=for	!	!	!	!	!	!	!	!	!	!
.	8E\	4r	16b\LL	f	.	.	.	.	.	.	4e/	-jus	.	.
.	.	.	32cc#\L	.	.	.	.	.	.	.	.	.	.	.
.	.	.	32dd#X\J	.	.	.	.	.	.	.	.	.	.	.
.	8r	.	16ee'\	.	.	.	.	.	.	.	.	.	.	.
.	.	.	16ee'\JJ	.	.	.	.	.	.	.	.	.	.	.
.	8B\L	16b\LL	16dd#\LL	.	.	.	.	.	.	.	4r	.	.	.
.	.	32cc#\L	32ee\L	.	.	.	.	.	.	.	.	.	.	.
.	.	32dd#X\J	32ff#\J	.	.	.	.	.	.	.	.	.	.	.
.	8E\J	16ee'\	16gg#'\	.	.	.	.	.	.	.	.	.	.	.
.	.	16ee'\JJ	16gg#'\JJ	.	.	.	.	.	.	.	.	.	.	.
!	!	!	!LO:LB:g=original	!	!	!	!	!	!	!	!	!	!	!
=37	=37	=37	=37	=37	=37	=37	=37	=37	=37	=37	=37	=37	=37	=37
1ryy	8B\L	16dd#X\LL	16ff#\LL	.	1ryy	.	1ryy	.	.	.	00r	.	1ryy	1ryy
.	.	32ee\L	32gg#\L	.	.	.	.	.	.	.	.	.	.	.
.	.	32ff#\J	32aa\J	.	.	.	.	.	.	.	.	.	.	.
.	8E\	16gg#\	16bb'\	.	.	.	.	.	.	.	.	.	.	.
.	.	16gg#\JJ	16bb'\JJ	.	.	.	.	.	.	.	.	.	.	.
.	8A\	16gg#\LL	(16bb\LL	.	.	.	.	.	.	.	.	.	.	.
.	.	16ff#\JJ	16aa\	.	.	.	.	.	.	.	.	.	.	.
!	!	!LO:LB:g=original	!	!	!	!	!	!	!	!	!	!	!	!
.	8B\J	16ff#\LL	16aa\	.	.	.	.	.	.	.	.	.	.	.
.	.	16dd#X\JJ	16ff#\JJ)	.	.	.	.	.	.	.	.	.	.	.
!	!	!LO:TX:t=P:problem:mixed beam	!	!	!	!	!	!	!	!	!	!	!	!
.	4E\	8ee\L	8gg#\L	.	.	.	.	.	.	.	.	.	.	.
.	.	8g#/J	16ee\L	.	.	.	.	.	.	.	.	.	.	.
.	.	.	16b\JJ	.	.	.	.	.	.	.	.	.	.	.
.	8A\L	16g#/LL	(16b\LL	.	.	.	.	.	.	.	.	.	.	.
.	.	16f#/	16a\	.	.	.	.	.	.	.	.	.	.	.
.	8B\J	16f#/	16a\	.	.	.	.	.	.	.	.	.	.	.
.	.	16d#X/JJ	16f#\JJ)	.	.	.	.	.	.	.	.	.	.	.
=38	=38	=38	=38	=38	=38	=38	=38	=38	=38	=38	=38	=38	=38	=38
!	!LO:TX:t=P:problem:mixed beam	!	!	!	!	!	!	!	!	!	!	!	!	!
1ryy	8E/L	8e/L	8g#/L	.	1ryy	.	1ryy	.	2r	.	.	.	1ryy	1ryy
.	8A/	8e/	8f#/J	.	.	.	.	.	.	.	.	.	.	.
.	8B/	8e/	8.f#/L	.	.	.	.	.	.	.	.	.	.	.
.	8BB\J	8d#X/J	.	.	.	.	.	.	.	.	.	.	.	.
.	.	.	16g#/Jk	.	.	.	.	.	.	.	.	.	.	.
.	4E\	4e/	4.e/	.	.	.	.	.	4r	.	.	.	.	.
.	4r	4r	.	.	.	.	.	.	8r	.	.	.	.	.
!	!	!	!	!LO:DY:a:t=pia	!	!	!	!	!	!	!	!	!	!
.	.	.	16ee\LL	p	.	.	.	.	16e\	Et	.	.	.	.
.	.	.	16ff#\JJ	.	.	.	.	.	16f#\	mi-	.	.	.	.
!	!LO:LB:g=original	!	!	!	!	!	!	!	!	!	!	!	!	!
=39	=39	=39	=39	=39	=39	=39	=39	=39	=39	=39	=39	=39	=39	=39
1ryy	8E\L	8e/L	4gg#\	.	1ryy	.	1ryy	.	4g#\	-se-	.	.	1ryy	1ryy
.	8E\	8e/	.	.	.	.	.	.	.	.	.	.	.	.
.	8F#\	8d#X/	8.aaM\L	.	.	.	.	.	8.a\L	-ri-	.	.	.	.
.	8F#\J	8d#/J	.	.	.	.	.	.	.	.	.	.	.	.
.	.	.	32gg#\LL	.	.	.	.	.	32g#\LL	.	.	.	.	.
.	.	.	32aa\JJJ	.	.	.	.	.	32a\JJJ	.	.	.	.	.
.	8G#\L	8e/L	8bb\L	.	.	.	.	.	8b\	-cor-	.	.	.	.
.	8F#\	8b/	8ee\	.	.	.	.	.	16e\	-di-	.	.	.	.
.	.	.	.	.	.	.	.	.	16e\	-a	.	.	.	.
.	8G#\	8b/	8ee\	.	.	.	.	.	8r	.	.	.	.	.
.	8E\J	8b/J	8ee\J	.	.	.	.	.	8b\	mi-	.	.	.	.
!	!	!	!LO:LB:g=original	!	!	!	!	!	!LO:LB:g=original	!	!	!	!	!
=40	=40	=40	=40	=40	=40	=40	=40	=40	=40	=40	=40	=40	=40	=40
1ryy	8A\L	4a/	16ccc#\LL	.	1ryy	.	1ryy	.	4.cc#\	-se-	.	.	1ryy	1ryy
.	.	.	16ee\	.	.	.	.	.	.	.	.	.	.	.
.	8A\	.	16ff#\	.	.	.	.	.	.	.	.	.	.	.
.	.	.	16ee\JJ	.	.	.	.	.	.	.	.	.	.	.
.	8A\	8r	16ccc#\LL	.	.	.	.	.	.	.	.	.	.	.
.	.	.	16ee\	.	.	.	.	.	.	.	.	.	.	.
.	8A\J	8a/	16ff#\	.	.	.	.	.	16b\LL	-ri-	.	.	.	.
.	.	.	16ee\JJ	.	.	.	.	.	16a\JJ	.	.	.	.	.
*	*tremolo	*	*	*	*	*	*	*	*	*	*	*	*	*
.	8G#\L	4g#/	16bb\LL	.	.	.	.	.	4.b\	-cor-	.	.	.	.
.	.	.	16ee\	.	.	.	.	.	.	.	.	.	.	.
.	8G#\	.	16ff#\	.	.	.	.	.	.	.	.	.	.	.
.	.	.	16ee\JJ	.	.	.	.	.	.	.	.	.	.	.
.	8G#\	8r	16bb\LL	.	.	.	.	.	.	.	.	.	.	.
.	.	.	16ee\	.	.	.	.	.	.	.	.	.	.	.
.	8G#\J	8e/	16ff#\	.	.	.	.	.	16a\	-di-	.	.	.	.
.	.	.	16ee\JJ	.	.	.	.	.	16g#\	-a	.	.	.	.
*	*Xtremolo	*	*	*	*	*	*	*	*	*	*	*	*	*
=41	=41	=41	=41	=41	=41	=41	=41	=41	=41	=41	=41	=41	=41	=41
1ryy	8F#\L	8d#X/L	8aa\L	.	1ryy	.	1ryy	.	8a\	e-	00r	.	1ryy	1ryy
.	8E\	8e/J	8gg#\J	.	.	.	.	.	8g#\	-jus	.	.	.	.
!	!	!LO:LB:g=original	!	!	!	!	!	!	!	!	!	!	!	!
!	!	!LO:TX:t=P:problem:mixed beam	!LO:TX:t=P:problem:mixed beam	!	!	!	!	!	!	!	!	!	!	!
.	8G#\	8e/L	8e\L	.	.	.	.	.	8r	.	.	.	.	.
.	8E\J	8ee\J	8gg#/J	.	.	.	.	.	16g#\	à	.	.	.	.
.	.	.	.	.	.	.	.	.	16g#\	pro-	.	.	.	.
*	*tremolo	*	*	*	*	*	*	*	*	*	*	*	*	*
.	16C#/LL	16ee\LL	16gg#\LL	.	.	.	.	.	4.g#\	-ge-	.	.	.	.
.	16C#/	16ee\	16gg#\	.	.	.	.	.	.	.	.	.	.	.
.	16C#/	16ee\	16gg#\	.	.	.	.	.	.	.	.	.	.	.
.	16C#/JJ	16ee\JJ	16gg#\JJ	.	.	.	.	.	.	.	.	.	.	.
.	16C#/LL	16ee\LL	16gg#\LL	.	.	.	.	.	.	.	.	.	.	.
.	16C#/	16ee\	16gg#\	.	.	.	.	.	.	.	.	.	.	.
.	16C#/	16ee\	16aa\	.	.	.	.	.	16a\	-nie	.	.	.	.
.	16C#/JJ	16ee\JJ	16gg#\JJ	.	.	.	.	.	16g#\	im	.	.	.	.
*	*Xtremolo	*	*	*	*	*	*	*	*	*	*	*	*	*
=42	=42	=42	=42	=42	=42	=42	=42	=42	=42	=42	=42	=42	=42	=42
1ryy	8r	8r	4.ff#\	.	1ryy	.	1ryy	.	4.f#\	pro-	.	.	1ryy	1ryy
.	8AA#X/L	8cc#\L	.	.	.	.	.	.	.	.	.	.	.	.
.	8FF#/	8a#X\	.	.	.	.	.	.	.	.	.	.	.	.
.	8AA#/J	8cc#\J	8ee\	.	.	.	.	.	8e\	.	.	.	.	.
!	!	!	!	!	!	!	!	!	!LO:LB:g=original	!	!	!	!	!
.	8BB\L	8b/L	8dd#X\L	.	.	.	.	.	8d#X\	-ge-	.	.	.	.
.	8BB\	8f#/	8dd#\	.	.	.	.	.	16B/	-ni-	.	.	.	.
.	.	.	.	.	.	.	.	.	16B/	-es	.	.	.	.
.	8D#X\	8f#/	8ff#\	.	.	.	.	.	8r	.	.	.	.	.
.	8BB\J	8f#/J	8dd#\J	.	.	.	.	.	8b\	ti-	.	.	.	.
!	!LO:LB:g=original	!	!LO:LB:g=original	!	!	!	!	!	!	!	!	!	!	!
=43	=43	=43	=43	=43	=43	=43	=43	=43	=43	=43	=43	=43	=43	=43
1ryy	8r	4g#/	4ee\	.	1ryy	.	1ryy	.	2e\	-men-	.	.	1ryy	1ryy
.	8c#\L	.	.	.	.	.	.	.	.	.	.	.	.	.
.	8A\	4r	4r	.	.	.	.	.	.	.	.	.	.	.
.	8F#\J	.	.	.	.	.	.	.	.	.	.	.	.	.
!	!LO:TX:t=P:problem:mixed beam	!	!	!	!	!	!	!	!	!	!	!	!	!
.	8B\L	2r	2r	.	.	.	.	.	8e\	-ti-	.	.	.	.
.	8A\	.	.	.	.	.	.	.	16f#\	-bus	.	.	.	.
.	.	.	.	.	.	.	.	.	16e\	e-	.	.	.	.
.	8B\	.	.	.	.	.	.	.	8.d#X\L	.	.	.	.	.
.	8BB/J	.	.	.	.	.	.	.	.	.	.	.	.	.
.	.	.	.	.	.	.	.	.	16e\Jk	.	.	.	.	.
=44	=44	=44	=44	=44	=44	=44	=44	=44	=44	=44	=44	=44	=44	=44
!	!	!	!	!LO:DY:b:t=for	!	!	!	!	!	!	!	!	!	!
1ryy	8E\L	8g#\L	[4b\	f	1ryy	.	1ryy	.	4e\	-um,	.	.	1ryy	1ryy
.	8F#\	8a\	.	.	.	.	.	.	.	.	.	.	.	.
.	8G#\	8b\	16b\LL]	.	.	.	.	.	4r	.	.	.	.	.
.	.	.	32b\L	.	.	.	.	.	.	.	.	.	.	.
.	.	.	32cc#\J	.	.	.	.	.	.	.	.	.	.	.
*	*	*	*Xtuplet	*	*	*	*	*	*	*	*	*	*	*
.	8E\J	8ee\J	24dd#X\	.	.	.	.	.	.	.	.	.	.	.
.	.	.	24ee\	.	.	.	.	.	.	.	.	.	.	.
.	.	.	24g#\JJ	.	.	.	.	.	.	.	.	.	.	.
.	8F#\L	4cc#\	4a/	.	.	.	.	.	2r	.	.	.	.	.
.	8E\	.	.	.	.	.	.	.	.	.	.	.	.	.
.	8D#X\	8f#/L	16a/LL	.	.	.	.	.	.	.	.	.	.	.
.	.	.	32g#/L	.	.	.	.	.	.	.	.	.	.	.
.	.	.	32a/J	.	.	.	.	.	.	.	.	.	.	.
.	8BB\J	8d#X/J	16b/	.	.	.	.	.	.	.	.	.	.	.
.	.	.	16a/JJ	.	.	.	.	.	.	.	.	.	.	.
=45	=45	=45	=45	=45	=45	=45	=45	=45	=45	=45	=45	=45	=45	=45
1ryy	4E\	16e/LL	(16g#\LL	.	1ryy	.	1ryy	.	1r	.	1r	.	1ryy	1ryy
.	.	16g#/	16b\)	.	.	.	.	.	.	.	.	.	.	.
.	.	16b/	(16ee\	.	.	.	.	.	.	.	.	.	.	.
.	.	16ee/JJ	16gg#\JJ)	.	.	.	.	.	.	.	.	.	.	.
.	8r	16gg#\LL	16bb\LL	.	.	.	.	.	.	.	.	.	.	.
.	.	16b\JJ	16ee\	.	.	.	.	.	.	.	.	.	.	.
!	!	!LO:LB:g=original	!	!	!	!	!	!	!	!	!	!	!	!
.	8A\	16cc#\LL	16ff#\	.	.	.	.	.	.	.	.	.	.	.
.	.	16b\JJ	16ee\JJ	.	.	.	.	.	.	.	.	.	.	.
!	!LO:TX:t=P:problem:mixed beam	!	!	!	!	!	!	!	!	!	!	!	!	!
.	8B\L	4.f#/	4b\	.	.	.	.	.	.	.	.	.	.	.
.	8A\	.	.	.	.	.	.	.	.	.	.	.	.	.
.	8B\	.	4dd#X\	.	.	.	.	.	.	.	.	.	.	.
.	8BB/J	8f#/	.	.	.	.	.	.	.	.	.	.	.	.
!	!	!	!	!	!	!	!	!	!LO:PB:g=original	!	!	!	!	!
=46	=46	=46	=46	=46	=46	=46	=46	=46	=46	=46	=46	=46	=46	=46
*	*tremolo	*	*	*	*	*	*	*	*	*	*	*	*	*
!	!	!	!	!	!	!	!	!	!LO:TX:t=P:problem:brakująca pauza	!	!	!	!	!
1ryy	8E\L	4g#/	4ee\	.	1ryy	.	1ryy	.	8ryy	.	8r	.	1ryy	1ryy
.	8E\	.	.	.	.	.	.	.	8g#\	fe-	8b\	Fe-	.	.
.	8E\	4r	4r	.	.	.	.	.	8g#\	-cit	8b\	-cit	.	.
.	8E\J	.	.	.	.	.	.	.	8g#\	po-	8b\	po-	.	.
*	*Xtremolo	*	*	*	*	*	*	*	*	*	*	*	*	*
.	4AA/	2r	2r	.	.	.	.	.	8.a\	-ten-	8.cc#\	-ten-	.	.
.	.	.	.	.	.	.	.	.	16b\	-ti-	16dd\	-ti-	.	.
.	8r	.	.	.	.	.	.	.	8cc#\	-am	8ee\	-am	.	.
.	8AA/	.	.	.	.	.	.	.	8cc#\	in	8ee\	in	.	.
!	!	!	!LO:LB:g=original	!	!	!	!	!	!	!	!	!	!	!
=47	=47	=47	=47	=47	=47	=47	=47	=47	=47	=47	=47	=47	=47	=47
!	!LO:TX:t=P:problem:mixed beam	!	!	!	!	!	!	!	!	!	!	!	!	!
1ryy	8Dn\L	00r	2r	.	1ryy	.	1ryy	.	4.b\	bra-	4.dd\	bra-	1ryy	1ryy
.	8D\	.	.	.	.	.	.	.	.	.	.	.	.	.
.	8E\	.	.	.	.	.	.	.	.	.	.	.	.	.
.	8EE/J	.	.	.	.	.	.	.	16a\	-chi-	16cc#\	-chi-	.	.
.	.	.	.	.	.	.	.	.	16g#\	-o	16b\	-o	.	.
!	!LO:LB:g=original	!	!	!	!	!	!	!	!	!	!	!	!	!
!	!LO:TX:t=P:problem:mixed beam	!	!	!	!	!	!	!	!	!	!LO:LB:g=original	!	!	!
.	8AA/L	.	4r	.	.	.	.	.	8a\	su-	8cc#\	su-	.	.
.	8A\	.	.	.	.	.	.	.	8a\	-o	8cc#\	-o	.	.
.	8c#\	.	16a\LL	.	.	.	.	.	8r	.	8r	.	.	.
.	.	.	16cc#\	.	.	.	.	.	.	.	.	.	.	.
.	8A\J	.	(16ee\	.	.	.	.	.	8a\	dis-	8ee\	dis-	.	.
.	.	.	16aa\JJ)	.	.	.	.	.	.	.	.	.	.	.
=48	=48	=48	=48	=48	=48	=48	=48	=48	=48	=48	=48	=48	=48	=48
1ryy	4.d\	.	4ff#\	.	1ryy	.	1ryy	.	8a\L	-per-	4ff#\	-per-	1ryy	1ryy
.	.	.	.	.	.	.	.	.	8f#\J	-sit	.	.	.	.
.	.	.	4r	.	.	.	.	.	4.b\	su-	8ff#\	-sit	.	.
.	8B\	.	.	.	.	.	.	.	.	.	8dd\	su-	.	.
.	4c#\	.	2r	.	.	.	.	.	.	.	4.ee\	-per-	.	.
.	.	.	.	.	.	.	.	.	8e\	-per-	.	.	.	.
!	!	!	!	!	!	!	!	!	!LO:LB:g=original	!	!	!	!	!
.	8r	.	.	.	.	.	.	.	4a\	-bos	.	.	.	.
.	8A\	.	.	.	.	.	.	.	.	.	8cc#\	-bos	.	.
=49	=49	=49	=49	=49	=49	=49	=49	=49	=49	=49	=49	=49	=49	=49
!	!	!	!LO:TX:a:t=2	!	!	!	!	!	!	!	!	!	!	!
1ryy	8B\	.	0r	.	1ryy	.	1ryy	.	8a\	men-	4.dd\	men-	1ryy	1ryy
!	!LO:N:vis=8	!	!	!	!	!	!	!	!	!	!	!	!	!
.	4r	.	.	.	.	.	.	.	8f#\L	.	.	.	.	.
.	.	.	.	.	.	.	.	.	8g#\J	.	.	.	.	.
.	8E\	.	.	.	.	.	.	.	8g#\	-te	8b\	-te	.	.
.	8A\L	.	.	.	.	.	.	.	4.a\	cor-	4.cc#\	cor-	.	.
.	8B\	.	.	.	.	.	.	.	.	.	.	.	.	.
.	8c#\	.	.	.	.	.	.	.	.	.	.	.	.	.
.	8d\J	.	.	.	.	.	.	.	8a\	-dis	8ee\	-dis	.	.
=50	=50	=50	=50	=50	=50	=50	=50	=50	=50	=50	=50	=50	=50	=50
!	!LO:TX:t=P:problem:mixed beam	!	!	!	!	!	!	!	!	!	!	!	!	!
*	*	*	*	*	*	*	*	*	*	*ij	*	*	*	*
1ryy	8d\L	.	.	.	1ryy	.	1ryy	.	8a\	men-	8ff#\	men-	1ryy	1ryy
.	8D/J	.	.	.	.	.	.	.	8a\	-te	8ee\	-te	.	.
.	8r	.	.	.	.	.	.	.	8b\	cor-	8dd\	cor-	.	.
.	8AA/	.	.	.	.	.	.	.	8a\	-dis	8cc#\	-dis	.	.
*	*	*	*	*	*	*	*	*	*	*Xij	*	*	*	*
!	!	!	!	!	!	!	!	!	!	!	!LO:LB:g=original	!	!	!
.	4E\	.	.	.	.	.	.	.	(4a\	su-	4cc#\	su-	.	.
!	!LO:TX:a:i:t=Da Capo ad\nSignum	!	!	!	!	!	!	!	!	!	!	!	!	!
.	4EE/	.	.	.	.	.	.	.	4g#\)	.	(4b\	.	.	.
=51	=51	=51	=51	=51	=51	=51	=51	=51	=51	=51	=51	=51	=51	=51
1ryy	8A\Lyy	8c#/L	[4ee\	.	1ryy	.	1ryy	.	4a\	-i.	4a\)	-i.	1ryy	1ryy
.	8B\yy	8d/	.	.	.	.	.	.	.	.	.	.	.	.
.	8c#\yy	8e/	16ee\LL]	.	.	.	.	.	4r	.	4r	.	.	.
.	.	.	32ff#\L	.	.	.	.	.	.	.	.	.	.	.
.	.	.	32gg#\J	.	.	.	.	.	.	.	.	.	.	.
.	8A\Jyy	8a/J	16aa\	.	.	.	.	.	.	.	.	.	.	.
.	.	.	16cc#\JJ	.	.	.	.	.	.	.	.	.	.	.
.	4B\yy	4f#/	[4dd\	.	.	.	.	.	2r	.	2r	.	.	.
.	8G#\Lyy	8e/L	16dd\LL]	.	.	.	.	.	.	.	.	.	.	.
.	.	.	32cc#\L	.	.	.	.	.	.	.	.	.	.	.
.	.	.	32dd\J	.	.	.	.	.	.	.	.	.	.	.
.	8E\Jyy	8g#/J	16ee\	.	.	.	.	.	.	.	.	.	.	.
.	.	.	16dd\JJ	.	.	.	.	.	.	.	.	.	.	.
=52	=52	=52	=52	=52	=52	=52	=52	=52	=52	=52	=52	=52	=52	=52
1ryy	4A\yy	4e/	16cc#/LL	.	1ryy	.	1ryy	.	00r	.	00r	.	1ryy	1ryy
.	.	.	16a/	.	.	.	.	.	.	.	.	.	.	.
.	.	.	16e/	.	.	.	.	.	.	.	.	.	.	.
.	.	.	16c#/JJ	.	.	.	.	.	.	.	.	.	.	.
!	!	!	!LO:TX:t=P:problem:mixed beam	!	!	!	!	!	!	!	!	!	!	!
.	8ryy	8r	8A/L	.	.	.	.	.	.	.	.	.	.	.
.	8A\yy	8e/	8cc#\J	.	.	.	.	.	.	.	.	.	.	.
.	4G#\yy	4b\	16dd/LL	.	.	.	.	.	.	.	.	.	.	.
.	.	.	16b/	.	.	.	.	.	.	.	.	.	.	.
.	.	.	16g#/	.	.	.	.	.	.	.	.	.	.	.
.	.	.	16e/JJ	.	.	.	.	.	.	.	.	.	.	.
!	!	!	!LO:LB:g=original	!	!	!	!	!	!	!	!	!	!	!
!	!	!	!LO:TX:t=P:problem:mixed beam	!	!	!	!	!	!	!	!	!	!	!
.	8ryy	8r	8G#/L	.	.	.	.	.	.	.	.	.	.	.
.	8G#\yy	8b\	8dd\J	.	.	.	.	.	.	.	.	.	.	.
=53	=53	=53	=53	=53	=53	=53	=53	=53	=53	=53	=53	=53	=53	=53
1ryy	4A\yy	4e/	16cc#/LL	.	1ryy	.	1ryy	.	.	.	.	.	1ryy	1ryy
.	.	.	16a/	.	.	.	.	.	.	.	.	.	.	.
.	.	.	16e/	.	.	.	.	.	.	.	.	.	.	.
.	.	.	16c#/JJ	.	.	.	.	.	.	.	.	.	.	.
!	!	!	!LO:TX:t=P:problem:mixed beam	!	!	!	!	!	!	!	!	!	!	!
.	8ryy	8r	8A/L	.	.	.	.	.	.	.	.	.	.	.
.	8A\yy	8f#/	8cc#\J	.	.	.	.	.	.	.	.	.	.	.
.	4D\yy	4f#/	8.cc#\L	.	.	.	.	.	.	.	.	.	.	.
.	.	.	32dd\LL	.	.	.	.	.	.	.	.	.	.	.
.	.	.	32ee\JJJ	.	.	.	.	.	.	.	.	.	.	.
.	8ryy	8r	16ff#\LL	.	.	.	.	.	.	.	.	.	.	.
.	.	.	16b\	.	.	.	.	.	.	.	.	.	.	.
.	8D#X\yy	8f#/	16b\	.	.	.	.	.	.	.	.	.	.	.
.	.	.	16a\JJ	.	.	.	.	.	.	.	.	.	.	.
=54	=54	=54	=54	=54	=54	=54	=54	=54	=54	=54	=54	=54	=54	=54
1ryy	8E\Lyy	8e/L	8g#/L	.	1ryy	.	1ryy	.	.	.	.	.	1ryy	1ryy
.	8E\yy	8g#/	8e/J	.	.	.	.	.	.	.	.	.	.	.
.	8G#\yy	8b/	8r	.	.	.	.	.	.	.	.	.	.	.
.	8E\Jyy	8g#/J	8e/	.	.	.	.	.	.	.	.	.	.	.
.	4ryy	4r	16e/LL	.	.	.	.	.	.	.	.	.	.	.
.	.	.	32f#/L	.	.	.	.	.	.	.	.	.	.	.
.	.	.	32g#/J	.	.	.	.	.	.	.	.	.	.	.
.	.	.	16a'/	.	.	.	.	.	.	.	.	.	.	.
.	.	.	16a'/JJ	.	.	.	.	.	.	.	.	.	.	.
!	!	!LO:LB:g=original	!	!	!	!	!	!	!	!	!	!	!	!
.	8ryy	16e/LL	16g#/LL	.	.	.	.	.	.	.	.	.	.	.
.	.	32f#/L	32a/L	.	.	.	.	.	.	.	.	.	.	.
.	.	32g#/J	32b/J	.	.	.	.	.	.	.	.	.	.	.
.	8A\yy	16a'/	16cc#'/	.	.	.	.	.	.	.	.	.	.	.
.	.	16a'/JJ	16cc#'/JJ	.	.	.	.	.	.	.	.	.	.	.
=55	=55	=55	=55	=55	=55	=55	=55	=55	=55	=55	=55	=55	=55	=55
1ryy	8E\Lyy	16g#/LL	16b\LL	.	1ryy	.	1ryy	.	.	.	.	.	1ryy	1ryy
.	.	32a/L	32cc#\L	.	.	.	.	.	.	.	.	.	.	.
.	.	32b/J	32dd\J	.	.	.	.	.	.	.	.	.	.	.
.	8A\Jyy	16cc#'/	16ee'\	.	.	.	.	.	.	.	.	.	.	.
.	.	16cc#'/JJ	16ee'\JJ	.	.	.	.	.	.	.	.	.	.	.
!	!	!	!LO:LB:g=original	!	!	!	!	!	!	!	!	!	!	!
.	8D\Lyy	16cc#\LL	(16ee\LL	.	.	.	.	.	.	.	.	.	.	.
.	.	16b\	16dd\	.	.	.	.	.	.	.	.	.	.	.
.	8E\Jyy	16cc#\	16dd\	.	.	.	.	.	.	.	.	.	.	.
.	.	16g#\JJ	16b\JJ)	.	.	.	.	.	.	.	.	.	.	.
!	!LO:TX:t=P:problem:mixed beam	!	!	!	!	!	!	!	!	!	!	!	!	!
.	8.A\Lyy	8a/L	8cc#/L	.	.	.	.	.	.	.	.	.	.	.
.	.	8c#/J	16a/L	.	.	.	.	.	.	.	.	.	.	.
.	16AA\Jkyy	.	16e/JJ	.	.	.	.	.	.	.	.	.	.	.
.	8D\Lyy	16c#/LL	(16e/LL	.	.	.	.	.	.	.	.	.	.	.
.	.	16B/	16d/	.	.	.	.	.	.	.	.	.	.	.
.	8E\Jyy	16B/	16d/	.	.	.	.	.	.	.	.	.	.	.
.	.	16G#/JJ	16B/JJ)	.	.	.	.	.	.	.	.	.	.	.
=56	=56	=56	=56	=56	=56	=56	=56	=56	=56	=56	=56	=56	=56	=56
1ryy	8A\Lyy	16A/LL	16c#/LL	.	1ryy	.	1ryy	.	0r	.	0r	.	1ryy	1ryy
.	.	16c#/	16e/	.	.	.	.	.	.	.	.	.	.	.
.	8D\yy	16f#/	16a/	.	.	.	.	.	.	.	.	.	.	.
.	.	16f#/JJ	16b/JJ	.	.	.	.	.	.	.	.	.	.	.
.	8E\yy	8B/L	16g#/LL	.	.	.	.	.	.	.	.	.	.	.
.	.	.	16e/	.	.	.	.	.	.	.	.	.	.	.
.	8D\Jyy	8c#/J	16a/	.	.	.	.	.	.	.	.	.	.	.
.	.	.	16b/JJ	.	.	.	.	.	.	.	.	.	.	.
.	4E\yy	4c#/	4a/	.	.	.	.	.	.	.	.	.	.	.
.	4EE/yy	4B/	4g#/	.	.	.	.	.	.	.	.	.	.	.
=57	=57	=57	=57	=57	=57	=57	=57	=57	=57	=57	=57	=57	=57	=57
!	!LO:TX:t=P:problem:signum	!	!	!	!	!	!	!	!	!	!	!	!	!
1ryy	8AA/yy	4c#/	4a/	.	1ryy	.	1ryy	.	.	.	.	.	1ryy	1ryy
.	2.ryy	.	.	.	.	.	.	.	.	.	.	.	.	.
.	.	4r	4r	.	.	.	.	.	.	.	.	.	.	.
.	.	2r	2r	.	.	.	.	.	.	.	.	.	.	.
.	8ryy	.	.	.	.	.	.	.	.	.	.	.	.	.
!	!	!LO:LB:g=original	!LO:LB:g=original	!	!	!	!	!	!	!	!	!	!	!
==58	==58	==58	==58	==58	==58	==58	==58	==58	==58	==58	==58	==58	==58	==58
*k[f#c#]	*k[f#c#]	*k[f#c#]	*k[f#c#]	*	*k[f#c#]	*	*k[f#c#]	*	*k[f#c#]	*	*k[f#c#]	*	*k[f#c#]	*k[f#c#]
*M3/4	*M3/4	*M3/4	*M3/4	*	*M3/4	*	*M3/4	*	*M3/4	*	*M3/4	*	*M3/4	*M3/4
*	*met(3/2)	*	*	*	*	*	*	*	*	*	*	*	*	*
!	!	!	!LO:TX:b:t=|	!	!	!	!LO:TX:a:t=31	!	!LO:TX:a:i:t=Doposuit Tacet	!	!LO:TX:a:i:t=Doposuit Tacet	!	!	!LO:TX:b:i:t=Esurientes
!	!	!	!	!	!LO:N:vis=00	!	!LO:N:vis==00	!	!	!	!	!	!LO:N:vis=0	!
2.ryy	8D\	8d/	8d/	.	0.r	.	0.r	.	2.ryy	.	2.ryy	.	1.r	1.r
!	!	!	!LO:TX:b:t=|	!	!	!	!	!	!	!	!	!	!	!
.	4F#\	4f#/	4f#/	.	.	.	.	.	.	.	.	.	.	.
!	!	!	!LO:TX:b:t=|	!	!	!	!	!	!	!	!	!	!	!
.	4A\	4a/	4a/	.	.	.	.	.	.	.	.	.	.	.
!	!	!	!LO:TX:b:t=|	!	!	!	!	!	!	!	!	!	!	!
.	16B\LL	16b/LL	16b/LL	.	.	.	.	.	.	.	.	.	.	.
!	!	!	!LO:TX:b:t=|	!	!	!	!	!	!	!	!	!	!	!
.	16c#\JJ	16cc#/JJ	16cc#/JJ	.	.	.	.	.	.	.	.	.	.	.
=59	=59	=59	=59	=59	=59	=59	=59	=59	=59	=59	=59	=59	=59	=59
!	!	!	!LO:TX:b:t=|	!	!	!	!	!	!	!	!	!	!	!
2.ryy	8d\	8dd\	8dd\	.	.	.	.	.	2.ryy	.	2.ryy	.	.	.
!	!	!	!LO:TX:b:t=|	!	!	!	!	!	!	!	!	!	!	!
.	4F#\	4f#/	4f#/	.	.	.	.	.	.	.	.	.	.	.
!	!	!	!LO:TX:b:t=|	!	!	!	!	!	!	!	!	!	!	!
.	8G\L	8g/L	8g/L	.	.	.	.	.	.	.	.	.	.	.
!	!	!	!LO:TX:b:t=|	!	!	!	!	!	!	!	!	!	!	!
.	8A\	8a/	8a/J	.	.	.	.	.	.	.	.	.	.	.
!	!	!	!LO:TX:b:t=|	!	!	!	!	!	!	!	!	!	!	!
.	8F#\J	8f#/J	8f#/	.	.	.	.	.	.	.	.	.	.	.
=60	=60	=60	=60	=60	=60	=60	=60	=60	=60	=60	=60	=60	=60	=60
!	!	!	!LO:TX:b:t=|	!	!	!	!	!	!	!	!	!	!	!
2.ryy	8B\L	8b/L	8b/L	.	.	.	.	.	2.ryy	.	2.ryy	.	2.r	2.r
!	!	!	!LO:TX:b:t=|	!	!	!	!	!	!	!	!	!	!	!
.	8G\J	8g/J	8g/J	.	.	.	.	.	.	.	.	.	.	.
!	!	!	!LO:TX:b:t=|	!	!	!	!	!	!	!	!	!	!	!
.	4A\	4a/	4a/	.	.	.	.	.	.	.	.	.	.	.
.	4AA/	4A/	4A/	.	.	.	.	.	.	.	.	.	.	.
=61	=61	=61	=61	=61	=61	=61	=61	=61	=61	=61	=61	=61	=61	=61
2.ryy	4D\	16f#/LL	(16a/LL	.	.	.	.	.	2.ryy	.	2.ryy	.	2.ff#\	2.aa\
.	.	16g/	16b/	.	.	.	.	.	.	.	.	.	.	.
.	.	16f#/	16a/	.	.	.	.	.	.	.	.	.	.	.
.	.	16g/JJ	16b/JJ)	.	.	.	.	.	.	.	.	.	.	.
.	4r	16f#/LL	(16a/LL	.	.	.	.	.	.	.	.	.	.	.
.	.	16g/	16b/	.	.	.	.	.	.	.	.	.	.	.
.	.	16f#/	16a/	.	.	.	.	.	.	.	.	.	.	.
.	.	16g/JJ	16b/JJ)	.	.	.	.	.	.	.	.	.	.	.
.	4r	16f#/LL	16a'/LL	.	.	.	.	.	.	.	.	.	.	.
.	.	16g/	16b'/	.	.	.	.	.	.	.	.	.	.	.
.	.	16f#/	16a'/	.	.	.	.	.	.	.	.	.	.	.
.	.	16g/JJ	16b'/JJ	.	.	.	.	.	.	.	.	.	.	.
!	!	!	!LO:LB:g=original	!	!	!	!	!	!	!	!	!	!	!
=62	=62	=62	=62	=62	=62	=62	=62	=62	=62	=62	=62	=62	=62	=62
!	!	!	!	!	!LO:N:vis=00	!	!LO:N:vis=00	!	!	!	!	!	!	!
2.ryy	4A\	16e/LL	(16g/LL	.	0.r	.	0.r	.	2.ryy	.	2.ryy	.	2.ee\	2.gg\
.	.	16f#/	16a/	.	.	.	.	.	.	.	.	.	.	.
.	.	16e/	16g/	.	.	.	.	.	.	.	.	.	.	.
.	.	16f#/JJ	16a/JJ)	.	.	.	.	.	.	.	.	.	.	.
.	4r	16e/LL	(16g/LL	.	.	.	.	.	.	.	.	.	.	.
.	.	16f#/	16a/	.	.	.	.	.	.	.	.	.	.	.
.	.	16e/	16g/	.	.	.	.	.	.	.	.	.	.	.
.	.	16f#/JJ	16a/JJ)	.	.	.	.	.	.	.	.	.	.	.
!	!	!LO:PB:g=original	!	!	!	!	!	!	!	!	!	!	!	!
.	4r	16e/LL	16g'/LL	.	.	.	.	.	.	.	.	.	.	.
.	.	16f#/	16a'/	.	.	.	.	.	.	.	.	.	.	.
.	.	16e/	16g'/	.	.	.	.	.	.	.	.	.	.	.
.	.	16f#/JJ	16a'/JJ	.	.	.	.	.	.	.	.	.	.	.
=63	=63	=63	=63	=63	=63	=63	=63	=63	=63	=63	=63	=63	=63	=63
2.ryy	4D\	4.f#/	16f#/LL	.	.	.	.	.	2.ryy	.	2.ryy	.	4.dd\	4.ff#\
.	.	.	16a/	.	.	.	.	.	.	.	.	.	.	.
.	.	.	16b/	.	.	.	.	.	.	.	.	.	.	.
.	.	.	16cc#/JJ	.	.	.	.	.	.	.	.	.	.	.
.	4r	.	8dd\L	.	.	.	.	.	.	.	.	.	.	.
.	.	8a/L	8ff#\	.	.	.	.	.	.	.	.	.	8ff#\L	8aa\L
.	4G\	8g/	8ee\	.	.	.	.	.	.	.	.	.	8ee\	8gg\
.	.	8f#/J	8dd\J	.	.	.	.	.	.	.	.	.	8dd\J	8ff#\J
=64	=64	=64	=64	=64	=64	=64	=64	=64	=64	=64	=64	=64	=64	=64
2.ryy	4A\	8f#/L	8dd\L	.	.	.	.	.	2.ryy	.	2.ryy	.	8dd\L	8ff#\L
.	.	8e/J	8cc#\J	.	.	.	.	.	.	.	.	.	8a\	8ee\
.	8r	8r	8r	.	.	.	.	.	.	.	.	.	8a\	8ee\
.	8D\L	8aa\L	8ff#\L	.	.	.	.	.	.	.	.	.	8ff#\	8aa\
.	8D\	8aa\	8ee\	.	.	.	.	.	.	.	.	.	8ff#\	8aa\
!	!LO:TX:t=P:problem:segno	!	!	!	!	!	!	!	!	!	!	!	!	!
.	8D\J	8aa\J	8dd\J	.	.	.	.	.	.	.	.	.	8ff#\J	8aa\J
!	!LO:LB:g=original	!	!	!	!	!	!	!	!	!	!	!	!	!
=65	=65	=65	=65	=65	=65	=65	=65	=65	=65	=65	=65	=65	=65	=65
2.ryy	4G\	16aa\LL	16bb\LL	.	.	.	.	.	2.ryy	.	2.ryy	.	4dd\	4dd\
.	.	16gg\	16bb\	.	.	.	.	.	.	.	.	.	.	.
.	.	16gg\	16bb\	.	.	.	.	.	.	.	.	.	.	.
.	.	16gg\JJ	16bb\JJ	.	.	.	.	.	.	.	.	.	.	.
.	4G\	16gg\LL	16bb\LL	.	.	.	.	.	.	.	.	.	4dd\	4dd\
.	.	16gg\	16bb\	.	.	.	.	.	.	.	.	.	.	.
.	.	16gg\	16bb\	.	.	.	.	.	.	.	.	.	.	.
.	.	16gg\JJ	16bb\JJ	.	.	.	.	.	.	.	.	.	.	.
.	4G\	16gg\LL	16bb\LL	.	.	.	.	.	.	.	.	.	4dd\	4dd\
.	.	16gg\	16bb\	.	.	.	.	.	.	.	.	.	.	.
.	.	16gg\	16bb\	.	.	.	.	.	.	.	.	.	.	.
.	.	16gg\JJ	16bb\JJ	.	.	.	.	.	.	.	.	.	.	.
!	!	!	!LO:LB:g=original	!	!	!	!	!	!	!	!	!	!	!LO:LB:g=original
=66	=66	=66	=66	=66	=66	=66	=66	=66	=66	=66	=66	=66	=66	=66
!	!	!	!	!	!LO:N:vis=00	!	!LO:N:vis=00	!	!	!	!	!	!	!
2.ryy	4D\	16gg\LL	16aa\LL	.	0.r	.	0.r	.	2.ryy	.	2.ryy	.	8dd\L	8dd\L
.	.	16ff#\	16aa\	.	.	.	.	.	.	.	.	.	.	.
.	.	16ff#\	16aa\	.	.	.	.	.	.	.	.	.	8ff#\	8aa\
.	.	16ff#\JJ	16aa\JJ	.	.	.	.	.	.	.	.	.	.	.
.	4D\	16ff#\LL	16aa\LL	.	.	.	.	.	.	.	.	.	8ff#\	8aa\
.	.	16ff#\	16aa\	.	.	.	.	.	.	.	.	.	.	.
.	.	16ff#\	16aa\	.	.	.	.	.	.	.	.	.	8ff#\	8aa\
.	.	16ff#\JJ	16aa\JJ	.	.	.	.	.	.	.	.	.	.	.
*	*	*tremolo	*	*	*	*	*	*	*	*	*	*	*	*
.	4D\	16ff#\LL	16aa\LL	.	.	.	.	.	.	.	.	.	8ff#\	8aa\
.	.	16ff#\	16aa\	.	.	.	.	.	.	.	.	.	.	.
.	.	16ff#\	16aa\	.	.	.	.	.	.	.	.	.	8ff#\J	8aa\J
.	.	16ff#\JJ	16aa\JJ	.	.	.	.	.	.	.	.	.	.	.
*	*	*Xtremolo	*	*	*	*	*	*	*	*	*	*	*	*
!	!	!LO:LB:g=original	!	!	!	!	!	!	!	!	!	!	!	!
=67	=67	=67	=67	=67	=67	=67	=67	=67	=67	=67	=67	=67	=67	=67
2.ryy	4E\	16ff#\LL	16gg\LL	.	.	.	.	.	2.ryy	.	2.ryy	.	16ff#\LL	8gg\L
.	.	16ee\	16gg\	.	.	.	.	.	.	.	.	.	16ee\J	.
.	.	16ee\	16gg\	.	.	.	.	.	.	.	.	.	8ee\	8gg\
.	.	16ee\JJ	16gg\JJ	.	.	.	.	.	.	.	.	.	.	.
.	4r	16ee\LL	16gg\LL	.	.	.	.	.	.	.	.	.	8ee\	8gg\
.	.	16ee\	16gg\	.	.	.	.	.	.	.	.	.	.	.
.	.	16ee\	16gg\	.	.	.	.	.	.	.	.	.	8ee\	8gg\
.	.	16ee\JJ	16gg\JJ	.	.	.	.	.	.	.	.	.	.	.
.	4A\	16ee\LL	16gg\LL	.	.	.	.	.	.	.	.	.	8ee\	8gg\
.	.	16ee\	16gg\	.	.	.	.	.	.	.	.	.	.	.
.	.	16ee\	16gg\	.	.	.	.	.	.	.	.	.	8ee\J	8gg\J
.	.	16ee\JJ	16gg\JJ	.	.	.	.	.	.	.	.	.	.	.
!	!	!	!	!	!	!	!	!	!	!	!	!	!LO:LB:g=original	!
=68	=68	=68	=68	=68	=68	=68	=68	=68	=68	=68	=68	=68	=68	=68
2.ryy	4D\	8dd\	8ff#\	.	.	.	.	.	2.ryy	.	2.ryy	.	8dd\	8ff#\
.	.	4ff#\	4aa\	.	.	.	.	.	.	.	.	.	4ff#\	4aa\
.	4r	.	.	.	.	.	.	.	.	.	.	.	.	.
.	.	4dd\	4ff#\	.	.	.	.	.	.	.	.	.	4dd\	4ff#\
.	4r	.	.	.	.	.	.	.	.	.	.	.	.	.
.	.	[8a/	[8dd\	.	.	.	.	.	.	.	.	.	8a/	8dd\
=69	=69	=69	=69	=69	=69	=69	=69	=69	=69	=69	=69	=69	=69	=69
2.ryy	4D\	8a/]	8dd\]	.	.	.	.	.	2.ryy	.	2.ryy	.	8a/	8dd\
.	.	4f#/	4a/	.	.	.	.	.	.	.	.	.	4f#/	4a/
.	4r	.	.	.	.	.	.	.	.	.	.	.	.	.
.	.	4d/	4f#/	.	.	.	.	.	.	.	.	.	4d/	4f#/
.	4r	.	.	.	.	.	.	.	.	.	.	.	.	.
.	.	8f#/	8a/	.	.	.	.	.	.	.	.	.	8f#/	8a/
!	!	!	!LO:LB:g=original	!	!	!	!	!	!	!	!	!	!	!
=70	=70	=70	=70	=70	=70	=70	=70	=70	=70	=70	=70	=70	=70	=70
!	!	!	!	!	!	!	!LO:N:vis==00	!	!	!	!	!	!	!
2.ryy	8D\L	8f#/L	8dd\L	.	2.r	.	0.r	.	2.ryy	.	2.ryy	.	8f#/L	8dd\L
.	8G\J	8g/J	8ee\J	.	.	.	.	.	.	.	.	.	8a/J	8ee\J
.	4A\	4f#/	4a\	.	.	.	.	.	.	.	.	.	4dd\	4ff#\
.	4AA/	4e/	4cc#m\	.	.	.	.	.	.	.	.	.	4a/	8ee\L
.	.	.	.	.	.	.	.	.	.	.	.	.	.	8dd\J
=71	=71	=71	=71	=71	=71	=71	=71	=71	=71	=71	=71	=71	=71	=71
!	!LO:TX:t=P:problem:signum	!	!	!	!	!	!	!	!	!	!	!	!	!
2.ryy	4D\	4f#/	4dd\	.	4A\	De-	.	.	2.ryy	.	2.ryy	.	4f#/	4dd\
.	4r	4r	4r	.	8A\	-po-	.	.	.	.	.	.	4r	4r
.	.	.	.	.	8A\	-su-	.	.	.	.	.	.	.	.
.	8G\L	4r	4r	.	8B\	-it	.	.	.	.	.	.	4r	4r
.	8E\J	.	.	.	8c#\	po-	.	.	.	.	.	.	.	.
!	!	!	!	!	!LO:LB:g=original	!	!	!	!	!	!	!	!	!LO:LB:g=original
=72	=72	=72	=72	=72	=72	=72	=72	=72	=72	=72	=72	=72	=72	=72
2.ryy	4D\	2.r	2.r	.	4d\	-ten-	.	.	2.ryy	.	2.ryy	.	2.r	2.r
.	8r	.	.	.	8D/	-tes	.	.	.	.	.	.	.	.
.	8D\L	.	.	.	8F#\	de	.	.	.	.	.	.	.	.
.	8D\	.	.	.	8E\L	se-	.	.	.	.	.	.	.	.
.	8D\J	.	.	.	8D\J	.	.	.	.	.	.	.	.	.
=73	=73	=73	=73	=73	=73	=73	=73	=73	=73	=73	=73	=73	=73	=73
2.ryy	4D\	16f#/LL	16a/LL	.	2.A\	.	.	.	2.ryy	.	2.ryy	.	2.ff#\	2.aa\
.	.	16g/	16b/	.	.	.	.	.	.	.	.	.	.	.
.	.	16f#/	16a/	.	.	.	.	.	.	.	.	.	.	.
.	.	16g/JJ	16b/JJ	.	.	.	.	.	.	.	.	.	.	.
!	!	!LO:LB:g=original	!	!	!	!	!	!	!	!	!	!	!	!
.	4r	16f#/LL	16a/LL	.	.	.	.	.	.	.	.	.	.	.
.	.	16g/	16b/	.	.	.	.	.	.	.	.	.	.	.
.	.	16f#/	16a/	.	.	.	.	.	.	.	.	.	.	.
.	.	16g/JJ	16b/JJ	.	.	.	.	.	.	.	.	.	.	.
.	4r	16f#/LL	8a/L	.	.	.	.	.	.	.	.	.	.	.
.	.	16g/	.	.	.	.	.	.	.	.	.	.	.	.
.	.	16f#/	8a/J	.	.	.	.	.	.	.	.	.	.	.
.	.	16g/JJ	.	.	.	.	.	.	.	.	.	.	.	.
!	!LO:LB:g=original	!	!	!	!	!	!	!	!	!	!	!	!	!
=74	=74	=74	=74	=74	=74	=74	=74	=74	=74	=74	=74	=74	=74	=74
!	!	!	!	!	!	!	!LO:N:vis=00	!	!	!	!	!	!	!
2.ryy	4AA/	16e/LL	16g/LL	.	2.A\	.	0.r	.	2.ryy	.	2.ryy	.	2.ee\	2.gg\
.	.	16f#/	16a/	.	.	.	.	.	.	.	.	.	.	.
.	.	16e/	16g/	.	.	.	.	.	.	.	.	.	.	.
.	.	16f#/JJ	16a/JJ	.	.	.	.	.	.	.	.	.	.	.
.	4r	16e/LL	16g/LL	.	.	.	.	.	.	.	.	.	.	.
.	.	16f#/	16a/	.	.	.	.	.	.	.	.	.	.	.
.	.	16e/	16g/	.	.	.	.	.	.	.	.	.	.	.
.	.	16f#/JJ	16a/JJ	.	.	.	.	.	.	.	.	.	.	.
.	4r	8e/L	8g/L	.	.	.	.	.	.	.	.	.	.	.
.	.	8e/J	8g/J	.	.	.	.	.	.	.	.	.	.	.
=75	=75	=75	=75	=75	=75	=75	=75	=75	=75	=75	=75	=75	=75	=75
2.ryy	4D\	4d/	4f#/	.	16F#\LL	.	.	.	2.ryy	.	2.ryy	.	4dd\	4ff#\
.	.	.	.	.	16A\	.	.	.	.	.	.	.	.	.
.	.	.	.	.	16B\	.	.	.	.	.	.	.	.	.
.	.	.	.	.	16c#\JJ	.	.	.	.	.	.	.	.	.
.	8r	8r	8r	.	8d\L	.	.	.	.	.	.	.	4r	4r
.	8D\L	8f#/L	8dd\L	.	8F#\	.	.	.	.	.	.	.	.	.
.	8E\	8g/	8cc#\	.	8G\	.	.	.	.	.	.	.	4r	4r
.	8D\J	8f#/J	8dd\J	.	8F#\J	.	.	.	.	.	.	.	.	.
!	!	!	!LO:LB:g=original	!	!	!	!	!	!	!	!	!	!	!
=76	=76	=76	=76	=76	=76	=76	=76	=76	=76	=76	=76	=76	=76	=76
!	!	!	!	!	!	!	!	!	!	!	!	!	!LO:N:vis=00	!LO:N:vis=00
2.ryy	8A\L	8f#/L	8dd\L	.	8F#\	de	.	.	2.ryy	.	2.ryy	.	0.r	0.r
.	8A\	8e/J	8cc#\	.	8E\	.	.	.	.	.	.	.	.	.
.	8A\	8e/L	8cc#\	.	8r	.	.	.	.	.	.	.	.	.
.	8A\J	8e/	8a\	.	8A\	et	.	.	.	.	.	.	.	.
.	8D\L	8f#/	8b\	.	8B\	e-	.	.	.	.	.	.	.	.
.	8D\J	8f#/J	8a\J	.	8A\	-xal-	.	.	.	.	.	.	.	.
=77	=77	=77	=77	=77	=77	=77	=77	=77	=77	=77	=77	=77	=77	=77
2.ryy	4E\	4B/	4g#X/	.	16G#X\LL	-ta-	.	.	2.ryy	.	2.ryy	.	.	.
.	.	.	.	.	16E\	.	.	.	.	.	.	.	.	.
.	.	.	.	.	16G#\	.	.	.	.	.	.	.	.	.
.	.	.	.	.	16B\JJ	.	.	.	.	.	.	.	.	.
.	8r	8r	8r	.	2d\	.	.	.	.	.	.	.	.	.
!	!	!	!LO:TX:t=P:problem:dźwięk niewidoczny	!	!	!	!	!	!	!	!	!	!	!
.	8E\L	8B/L	8g#/L	.	.	.	.	.	.	.	.	.	.	.
.	8E\	8c#/	8g#/	.	.	.	.	.	.	.	.	.	.	.
.	8E\J	8B/J	8g#/J	.	.	.	.	.	.	.	.	.	.	.
!	!	!LO:LB:g=original	!	!	!	!	!	!	!	!	!	!	!	!
=78	=78	=78	=78	=78	=78	=78	=78	=78	=78	=78	=78	=78	=78	=78
!	!	!	!	!	!	!	!LO:N:vis=00	!	!	!	!	!	!	!
2.ryy	4A\	4c#/	4a/	.	16c#\LL	.	0.r	.	2.ryy	.	2.ryy	.	.	.
.	.	.	.	.	16A\	.	.	.	.	.	.	.	.	.
.	.	.	.	.	16c#\	.	.	.	.	.	.	.	.	.
.	.	.	.	.	16e\JJ	.	.	.	.	.	.	.	.	.
.	4r	4r	4r	.	8d\L	.	.	.	.	.	.	.	.	.
.	.	.	.	.	8c#\J	.	.	.	.	.	.	.	.	.
.	8D\L	4r	4r	.	8B\L	.	.	.	.	.	.	.	.	.
.	16C#\L	.	.	.	8A\J	.	.	.	.	.	.	.	.	.
.	16D\JJ	.	.	.	.	.	.	.	.	.	.	.	.	.
=79	=79	=79	=79	=79	=79	=79	=79	=79	=79	=79	=79	=79	=79	=79
!	!	!LO:N:vis=0	!LO:N:vis=0	!	!	!	!	!	!	!	!	!	!	!
2.ryy	4E\	1.r	1.r	.	8G#X\L	.	.	.	2.ryy	.	2.ryy	.	.	.
.	.	.	.	.	8E\	.	.	.	.	.	.	.	.	.
.	8r	.	.	.	8F#\	.	.	.	.	.	.	.	.	.
.	8E\L	.	.	.	8G#\J	.	.	.	.	.	.	.	.	.
.	8F#\	.	.	.	8A\L	.	.	.	.	.	.	.	.	.
.	8G#X\J	.	.	.	8B\J	.	.	.	.	.	.	.	.	.
=80	=80	=80	=80	=80	=80	=80	=80	=80	=80	=80	=80	=80	=80	=80
2.ryy	8A\L	.	.	.	8c#\L	-vit	.	.	2.ryy	.	2.ryy	.	2.r	2.r
.	8F#\J	.	.	.	8A\J	.	.	.	.	.	.	.	.	.
!	!LO:LB:g=original	!	!	!	!	!	!	!	!	!	!	!	!	!
.	4D\	.	.	.	4.E\	hu-	.	.	.	.	.	.	.	.
.	4E\	.	.	.	.	.	.	.	.	.	.	.	.	.
.	.	.	.	.	8G#X\	-mi-	.	.	.	.	.	.	.	.
!	!	!	!LO:TX:b:t=Verte	!	!	!	!	!	!	!	!	!	!	!
!	!	!	!LO:PB:g=original	!	!	!	!	!	!	!	!	!	!	!
=81	=81	=81	=81	=81	=81	=81	=81	=81	=81	=81	=81	=81	=81	=81
2.ryy	4AA/	8r	8r	.	4A\	-les	.	.	2.ryy	.	2.ryy	.	4a/	4a/
.	.	4a/	4cc#\	.	.	.	.	.	.	.	.	.	.	.
.	4r	.	.	.	4r	.	.	.	.	.	.	.	4a/	4a/
.	.	4b/	4dd\	.	.	.	.	.	.	.	.	.	.	.
.	4AA/	.	.	.	4r	.	.	.	.	.	.	.	4a/	4a/
.	.	8b/	8ee\	.	.	.	.	.	.	.	.	.	.	.
=82	=82	=82	=82	=82	=82	=82	=82	=82	=82	=82	=82	=82	=82	=82
!	!	!	!	!	!LO:N:vis=00	!	!LO:N:vis=00	!	!	!	!	!	!	!
2.ryy	4D\	16ff#\LL	16ee\LL	.	0.r	.	0.r	.	2.ryy	.	2.ryy	.	4a/	4a/
.	.	16ff#\	16dd\	.	.	.	.	.	.	.	.	.	.	.
.	.	16ff#\	16dd\	.	.	.	.	.	.	.	.	.	.	.
.	.	16ff#\JJ	16dd\JJ	.	.	.	.	.	.	.	.	.	.	.
.	4D\	16ff#\LL	16dd\LL	.	.	.	.	.	.	.	.	.	4r	4r
.	.	16ff#\	16dd\	.	.	.	.	.	.	.	.	.	.	.
.	.	16ff#\	16dd\	.	.	.	.	.	.	.	.	.	.	.
.	.	16ff#\JJ	16dd\JJ	.	.	.	.	.	.	.	.	.	.	.
.	4D\	16dd\LL	16ff#\LL	.	.	.	.	.	.	.	.	.	4r	4r
.	.	16dd\	16ff#\	.	.	.	.	.	.	.	.	.	.	.
.	.	16dd\	16ff#\	.	.	.	.	.	.	.	.	.	.	.
.	.	16dd\JJ	16ff#\JJ	.	.	.	.	.	.	.	.	.	.	.
!	!	!	!	!	!	!	!	!	!	!	!	!	!LO:LB:g=original	!
=83	=83	=83	=83	=83	=83	=83	=83	=83	=83	=83	=83	=83	=83	=83
2.ryy	4A\	16dd\LL	16ee\LL	.	.	.	.	.	2.ryy	.	2.ryy	.	4a/	4a/
.	.	16cc#\	16ee\	.	.	.	.	.	.	.	.	.	.	.
.	.	16cc#\	16ee\	.	.	.	.	.	.	.	.	.	.	.
.	.	16cc#\JJ	16ee\JJ	.	.	.	.	.	.	.	.	.	.	.
.	4A\	16cc#\LL	16ee\LL	.	.	.	.	.	.	.	.	.	4a/	4a/
.	.	16cc#\	16ee\	.	.	.	.	.	.	.	.	.	.	.
.	.	16cc#\	16ee\	.	.	.	.	.	.	.	.	.	.	.
.	.	16cc#\JJ	16ee\JJ	.	.	.	.	.	.	.	.	.	.	.
.	4A\	16cc#\LL	16ee\LL	.	.	.	.	.	.	.	.	.	4a/	4a/
.	.	16cc#\	16ee\	.	.	.	.	.	.	.	.	.	.	.
.	.	16cc#\	16ee\	.	.	.	.	.	.	.	.	.	.	.
.	.	16cc#\JJ	16ee\JJ	.	.	.	.	.	.	.	.	.	.	.
!	!	!LO:LB:g=original	!	!	!	!	!	!	!	!	!	!	!	!
=84	=84	=84	=84	=84	=84	=84	=84	=84	=84	=84	=84	=84	=84	=84
2.ryy	4B\	16cc#\LL	16dd\LL	.	.	.	.	.	2.ryy	.	2.ryy	.	4f#/	4f#/
.	.	16b\	16dd\	.	.	.	.	.	.	.	.	.	.	.
.	.	16b\	16dd\	.	.	.	.	.	.	.	.	.	.	.
.	.	16b\JJ	16dd\JJ	.	.	.	.	.	.	.	.	.	.	.
.	4r	16b\LL	16dd\LL	.	.	.	.	.	.	.	.	.	4r	4r
.	.	16b\	16dd\	.	.	.	.	.	.	.	.	.	.	.
.	.	16b\	16dd\	.	.	.	.	.	.	.	.	.	.	.
.	.	16b\JJ	16dd\JJ	.	.	.	.	.	.	.	.	.	.	.
!	!	!	!LO:LB:g=original	!	!	!	!	!	!	!	!	!	!	!
.	4E\	16b\LL	16dd\LL	.	.	.	.	.	.	.	.	.	4r	4r
.	.	16b\	16dd\	.	.	.	.	.	.	.	.	.	.	.
.	.	16b\	16dd\	.	.	.	.	.	.	.	.	.	.	.
.	.	16b\JJ	16dd\JJ	.	.	.	.	.	.	.	.	.	.	.
=85	=85	=85	=85	=85	=85	=85	=85	=85	=85	=85	=85	=85	=85	=85
2.ryy	4A\	8a/	8dd\	.	.	.	.	.	2.ryy	.	2.ryy	.	4a/	4a/
.	.	4cc#\	4ee\	.	.	.	.	.	.	.	.	.	.	.
.	4r	.	.	.	.	.	.	.	.	.	.	.	4a/	4a/
.	.	4a/	4cc#\	.	.	.	.	.	.	.	.	.	.	.
.	4r	.	.	.	.	.	.	.	.	.	.	.	4a/	4a/
.	.	8e/	8a/	.	.	.	.	.	.	.	.	.	.	.
=86	=86	=86	=86	=86	=86	=86	=86	=86	=86	=86	=86	=86	=86	=86
!	!LO:TX:t=P:problem:brakujący takt? 	!	!	!	!LO:N:vis=00	!	!LO:N:vis=0	!	!	!	!	!	!	!
2.ryy	2.ryy	8c#/	8e/	.	0.r	.	1.r	.	2.ryy	.	2.ryy	.	4a/	4a/
.	.	4e/	4a/	.	.	.	.	.	.	.	.	.	.	.
.	.	.	.	.	.	.	.	.	.	.	.	.	4a/	4a/
.	.	4a/	4cc#/	.	.	.	.	.	.	.	.	.	.	.
.	.	.	.	.	.	.	.	.	.	.	.	.	4a/	4a/
.	.	8cc#\	8ee\	.	.	.	.	.	.	.	.	.	.	.
!	!	!	!	!	!	!	!	!	!	!	!	!	!	!LO:LB:g=original
=87	=87	=87	=87	=87	=87	=87	=87	=87	=87	=87	=87	=87	=87	=87
2.ryy	4A\	4cc#\	8aa\L	.	.	.	.	.	2.ryy	.	2.ryy	.	4a/	4a/
.	.	.	16gg#X\L	.	.	.	.	.	.	.	.	.	.	.
.	.	.	16ff#\JJ	.	.	.	.	.	.	.	.	.	.	.
.	8r	8r	8ee\L	.	.	.	.	.	.	.	.	.	4r	4r
.	8c#\L	8e/L	8a\	.	.	.	.	.	.	.	.	.	.	.
.	8d\	8f#/	8b\	.	.	.	.	.	.	.	.	.	4r	4r
.	8c#\J	8e/J	8a\J	.	.	.	.	.	.	.	.	.	.	.
=88	=88	=88	=88	=88	=88	=88	=88	=88	=88	=88	=88	=88	=88	=88
2.ryy	2e\	2B/	2e/	.	.	.	2.r	.	2.ryy	.	2.ryy	.	4ee\	4aa\
.	.	.	.	.	.	.	.	.	.	.	.	.	4ee\	4aa\
.	4E\	4B/	4g#X/	.	.	.	.	.	.	.	.	.	4ee\	4gg#X\
=89	=89	=89	=89	=89	=89	=89	=89	=89	=89	=89	=89	=89	=89	=89
2.ryy	4A\	4c#/	4a/	.	.	.	4A\	e-	2.ryy	.	2.ryy	.	4a/	4aa\
!	!	!LO:LB:g=original	!	!	!	!	!	!	!	!	!	!	!	!
.	4r	4r	4r	.	.	.	(8e\L	-su-	.	.	.	.	4r	4r
.	.	.	.	.	.	.	8c#\J)	.	.	.	.	.	.	.
.	4r	4r	4r	.	.	.	(8d\L	-ri-	.	.	.	.	4r	4r
.	.	.	.	.	.	.	8e\J)	.	.	.	.	.	.	.
=90	=90	=90	=90	=90	=90	=90	=90	=90	=90	=90	=90	=90	=90	=90
!	!	!LO:N:vis=00	!LO:N:vis=0	!	!LO:N:vis=00	!	!	!	!	!	!	!	!LO:N:vis=00	!LO:N:vis=00
2.ryy	4G\	0.r	1.r	.	0.r	.	4A\	-en-	2.ryy	.	2.ryy	.	0.r	0.r
!	!LO:LB:g=original	!	!	!	!	!	!	!	!	!	!	!	!	!
.	4F#\	.	.	.	.	.	4A\	-tes	.	.	.	.	.	.
.	4C#/	.	.	.	.	.	4e\	im-	.	.	.	.	.	.
=91	=91	=91	=91	=91	=91	=91	=91	=91	=91	=91	=91	=91	=91	=91
2.ryy	8D\L	.	.	.	.	.	8f#\	-ple-	2.ryy	.	2.ryy	.	.	.
.	8F#\J	.	.	.	.	.	8d\	-vit	.	.	.	.	.	.
!	!	!	!	!	!	!	!LO:LB:g=original	!	!	!	!	!	!	!
.	4G#X\	.	.	.	.	.	4eM\	bo-	.	.	.	.	.	.
.	4E\	.	.	.	.	.	4d\	.	.	.	.	.	.	.
=92	=92	=92	=92	=92	=92	=92	=92	=92	=92	=92	=92	=92	=92	=92
2.ryy	4A\	.	2.r	.	.	.	4.c#\	-nis	2.ryy	.	2.ryy	.	.	.
.	8A\L	.	.	.	.	.	.	.	.	.	.	.	.	.
.	8F#\	.	.	.	.	.	8A/	et	.	.	.	.	.	.
.	8Gn\	.	.	.	.	.	8B\	di-	.	.	.	.	.	.
.	8E\J	.	.	.	.	.	8c#\	-vi-	.	.	.	.	.	.
!	!	!	!LO:LB:g=original	!	!	!	!	!	!	!	!	!	!	!
=93	=93	=93	=93	=93	=93	=93	=93	=93	=93	=93	=93	=93	=93	=93
2.ryy	4F#\	.	4aa\	.	.	.	4d\	-tes	2.ryy	.	2.ryy	.	.	.
.	4D\	.	4ff#\	.	.	.	(4f#\	di-	.	.	.	.	.	.
.	4F#\	.	4aa\	.	.	.	4d\)	mi-	.	.	.	.	.	.
=94	=94	=94	=94	=94	=94	=94	=94	=94	=94	=94	=94	=94	=94	=94
!	!	!LO:N:vis=0	!	!	!LO:N:vis=00	!	!	!	!	!	!	!	!LO:N:vis=0	!LO:N:vis=0
2.ryy	4G\	1.r	4aa\	.	0.r	.	4B\	-sit	2.ryy	.	2.ryy	.	1.r	1.r
.	4G\	.	4ggn\	.	.	.	4B\	i-	.	.	.	.	.	.
.	8E\L	.	4gg\	.	.	.	8g#X\L	.	.	.	.	.	.	.
.	8G\J	.	.	.	.	.	8e\J	.	.	.	.	.	.	.
=95	=95	=95	=95	=95	=95	=95	=95	=95	=95	=95	=95	=95	=95	=95
2.ryy	2A\	.	4gg\	.	.	.	4c#\	-na-	2.ryy	.	2.ryy	.	.	.
.	.	.	4ff#\	.	.	.	4d\	.	.	.	.	.	.	.
.	4G\	.	4cc#\	.	.	.	4e\	.	.	.	.	.	.	.
!	!	!	!	!	!	!	!LO:LB:g=original	!	!	!	!	!	!	!
=96	=96	=96	=96	=96	=96	=96	=96	=96	=96	=96	=96	=96	=96	=96
2.ryy	8F#\L	2.r	4dd\	.	.	.	8f#\L	.	2.ryy	.	2.ryy	.	2.r	2.r
.	8G\J	.	.	.	.	.	8d\J	.	.	.	.	.	.	.
.	4A\	.	4r	.	.	.	4A\	.	.	.	.	.	.	.
.	4AA/	.	4r	.	.	.	4c#m\	.	.	.	.	.	.	.
=97	=97	=97	=97	=97	=97	=97	=97	=97	=97	=97	=97	=97	=97	=97
2.ryy	4D\	8d/	8d/	.	.	.	4d\	-nes	2.ryy	.	2.ryy	.	8d/	8d/
.	.	4f#/	4f#/	.	.	.	.	.	.	.	.	.	4d/	4d/
.	4r	.	.	.	.	.	4r	.	.	.	.	.	.	.
.	.	4a/	4a/	.	.	.	.	.	.	.	.	.	4d/	4d/
.	4r	.	.	.	.	.	4r	.	.	.	.	.	.	.
.	.	16b\LL	16b/LL	.	.	.	.	.	.	.	.	.	8d/	8d/
.	.	16cc#\JJ	16cc#/JJ	.	.	.	.	.	.	.	.	.	.	.
=98	=98	=98	=98	=98	=98	=98	=98	=98	=98	=98	=98	=98	=98	=98
!	!	!	!	!	!	!	!LO:N:vis=0	!	!	!	!	!	!	!
2.ryy	4F#\	4dd\	4dd\	.	4A\	Sus-	1.r	.	2.ryy	.	2.ryy	.	4d/	4d/
.	4F#\	4r	4r	.	4d\	-ce-	.	.	.	.	.	.	4r	4r
!	!LO:LB:g=original	!	!	!	!	!	!	!	!	!	!	!	!	!
.	4G\	4r	4r	.	4d\	-pit	.	.	.	.	.	.	4r	4r
!	!	!	!	!	!	!	!	!	!	!	!	!	!LO:LB:g=original	!
=99	=99	=99	=99	=99	=99	=99	=99	=99	=99	=99	=99	=99	=99	=99
2.ryy	4A\	8A/	8A/	.	8c#\	Is-	.	.	2.ryy	.	2.ryy	.	8a/	8a/
.	.	4c#/	4c#/	.	8B\	-ra-	.	.	.	.	.	.	4a/	4a/
.	4AA/	.	.	.	4A\	-el	.	.	.	.	.	.	.	.
.	.	4e/	4e/	.	.	.	.	.	.	.	.	.	4a/	4a/
.	4r	.	.	.	4r	.	.	.	.	.	.	.	.	.
.	.	16f#/LL	16f#/LL	.	.	.	.	.	.	.	.	.	8a/	8a/
.	.	16g#X/JJ	16g#X/JJ	.	.	.	.	.	.	.	.	.	.	.
!	!	!	!LO:LB:g=original	!	!	!	!	!	!	!	!	!	!	!
=100	=100	=100	=100	=100	=100	=100	=100	=100	=100	=100	=100	=100	=100	=100
2.ryy	4F#\	4a/	4a/	.	2.r	.	4.A\	pu-	2.ryy	.	2.ryy	.	4a/	4a/
.	4G\	4r	4r	.	.	.	.	.	.	.	.	.	4r	4r
.	.	.	.	.	.	.	8B\	-e-	.	.	.	.	.	.
.	4E\	4r	4r	.	.	.	4c#\	-rum	.	.	.	.	4r	4r
=101	=101	=101	=101	=101	=101	=101	=101	=101	=101	=101	=101	=101	=101	=101
!	!	!	!	!	!	!	!	!	!	!	!	!	!LO:N:vis=00	!LO:N:vis=00
2.ryy	4D\	2.r	2.r	.	4r	.	4d\	su-	2.ryy	.	2.ryy	.	0.r	0.r
.	4r	.	.	.	4r	.	4D/	-um	.	.	.	.	.	.
!	!	!	!	!	!LO:LB:g=original	!	!	!	!	!	!	!	!	!
.	4D\	.	.	.	8F#\	re-	8A/	re-	.	.	.	.	.	.
.	.	.	.	.	8F#\	-cor-	8A/	-cor-	.	.	.	.	.	.
!	!	!	!	!	!	!	!LO:LB:g=original	!	!	!	!	!	!	!
=102	=102	=102	=102	=102	=102	=102	=102	=102	=102	=102	=102	=102	=102	=102
2.ryy	4D\	8d/	8d/	.	4G\	-da-	4B\	-da-	2.ryy	.	2.ryy	.	.	.
.	.	4f#/	4f#/	.	.	.	.	.	.	.	.	.	.	.
.	4D\	.	.	.	4F#\	-tus	4A\	-tus	.	.	.	.	.	.
.	.	4a/	4a/	.	.	.	.	.	.	.	.	.	.	.
.	4r	.	.	.	4r	.	4r	.	.	.	.	.	.	.
.	.	16b\LL	16b\LL	.	.	.	.	.	.	.	.	.	.	.
.	.	16cc#\JJ	16cc#\JJ	.	.	.	.	.	.	.	.	.	.	.
!	!	!LO:LB:g=original	!	!	!	!	!	!	!	!	!	!	!	!
=103	=103	=103	=103	=103	=103	=103	=103	=103	=103	=103	=103	=103	=103	=103
2.ryy	4d\	4dd\	4dd\	.	4B\	mi-	4d\	mi-	2.ryy	.	2.ryy	.	.	.
.	4B\	4r	4r	.	4B\	-se-	4d\	-se-	.	.	.	.	.	.
.	4A\	4r	4r	.	4B\	-ri-	4d\	-ri-	.	.	.	.	.	.
=104	=104	=104	=104	=104	=104	=104	=104	=104	=104	=104	=104	=104	=104	=104
!	!	!	!LO:TX:a:t=2	!	!	!	!	!	!	!	!	!	!	!
!	!	!LO:N:vis=0	!LO:N:vis=0	!	!	!	!	!	!	!	!	!	!	!
2.ryy	4G#X\	1.r	1.r	.	4.B\	-cor-	4.d\	-cor-	2.ryy	.	2.ryy	.	.	.
.	4E\	.	.	.	.	.	.	.	.	.	.	.	.	.
.	.	.	.	.	8B\	-di-	8d\	-di-	.	.	.	.	.	.
.	4G#\	.	.	.	4B\	-ae	4d\	-ae	.	.	.	.	.	.
=105	=105	=105	=105	=105	=105	=105	=105	=105	=105	=105	=105	=105	=105	=105
!	!	!	!	!	!	!	!	!	!	!	!	!	!LO:N:vis=00	!LO:N:vis=00
2.ryy	8A\L	.	.	.	(2A\	su-	8c#\L	su-	2.ryy	.	2.ryy	.	0.r	0.r
.	8D\J	.	.	.	.	.	8B\J	.	.	.	.	.	.	.
.	4E\	.	.	.	.	.	2BM\	.	.	.	.	.	.	.
.	4EE/	.	.	.	4G#X\)	.	.	.	.	.	.	.	.	.
=106	=106	=106	=106	=106	=106	=106	=106	=106	=106	=106	=106	=106	=106	=106
2.ryy	4AA/	8A/	8A/	.	4A\	-ae.	4A\	-ae.	2.ryy	.	2.ryy	.	.	.
.	.	4c#/	4c#/	.	.	.	.	.	.	.	.	.	.	.
.	4r	.	.	.	4r	.	4r	.	.	.	.	.	.	.
.	.	4e/	4e/	.	.	.	.	.	.	.	.	.	.	.
.	4r	.	.	.	4r	.	4r	.	.	.	.	.	.	.
.	.	16f#/LL	16f#/LL	.	.	.	.	.	.	.	.	.	.	.
.	.	16g#X/JJ	16g#X/JJ	.	.	.	.	.	.	.	.	.	.	.
!	!LO:PB:g=original	!	!	!	!	!	!LO:LB:g=original	!	!	!	!	!	!	!
=107	=107	=107	=107	=107	=107	=107	=107	=107	=107	=107	=107	=107	=107	=107
!	!	!	!	!	!LO:N:vis=0	!	!	!	!	!	!	!	!	!
2.ryy	4A\	4a/	4a/	.	1.r	.	4A\	Si-	2.ryy	.	2.ryy	.	.	.
.	4r	4r	4r	.	.	.	(8e\L	-cut	.	.	.	.	.	.
.	.	.	.	.	.	.	8c#\J)	.	.	.	.	.	.	.
.	4G#X\	4r	4r	.	.	.	(8d\L	lo-	.	.	.	.	.	.
.	.	.	.	.	.	.	8e\J)	.	.	.	.	.	.	.
=108	=108	=108	=108	=108	=108	=108	=108	=108	=108	=108	=108	=108	=108	=108
!	!	!	!LO:TX:a:t=10	!	!	!	!	!	!	!	!	!	!	!
!	!	!LO:N:vis=00	!LO:N:vis=00	!	!	!	!	!	!	!	!	!	!	!
2.ryy	4F#\	0.r	0.r	.	.	.	4.A/	-cu-	2.ryy	.	2.ryy	.	.	.
.	4F#\	.	.	.	.	.	.	.	.	.	.	.	.	.
.	.	.	.	.	.	.	8A/	-tus	.	.	.	.	.	.
.	4F#\	.	.	.	.	.	4A/	est	.	.	.	.	.	.
=109	=109	=109	=109	=109	=109	=109	=109	=109	=109	=109	=109	=109	=109	=109
!	!	!	!	!	!	!	!LO:TX:a:t=2	!	!	!	!	!	!	!
!	!	!	!	!	!	!	!LO:N:vis=0	!	!	!	!	!	!LO:N:vis=00	!LO:N:vis=00
2.ryy	4F#\	.	.	.	4A\	Ad	1.r	.	2.ryy	.	2.ryy	.	0.r	0.r
.	8Gn\L	.	.	.	8B\	Pa-	.	.	.	.	.	.	.	.
.	8F#\J	.	.	.	8A\	-ter	.	.	.	.	.	.	.	.
.	8G\L	.	.	.	8B\	nos-	.	.	.	.	.	.	.	.
.	8E\J	.	.	.	8c#\	-tros	.	.	.	.	.	.	.	.
=110	=110	=110	=110	=110	=110	=110	=110	=110	=110	=110	=110	=110	=110	=110
2.ryy	4D\	.	.	.	4.d\	a-	.	.	2.ryy	.	2.ryy	.	.	.
.	4D\	.	.	.	.	.	.	.	.	.	.	.	.	.
.	.	.	.	.	8D/	-bra-	.	.	.	.	.	.	.	.
.	4D\	.	.	.	4D/	-ham	.	.	.	.	.	.	.	.
!	!	!	!	!	!LO:LB:g=original	!	!	!	!	!	!	!	!	!
=111	=111	=111	=111	=111	=111	=111	=111	=111	=111	=111	=111	=111	=111	=111
!	!	!	!	!	!	!	!LO:N:vis=2.	!	!	!	!	!	!	!
2.ryy	4D\	.	.	.	4r	.	2A/	et	2.ryy	.	2.ryy	.	.	.
.	4F#\	.	.	.	4r	.	.	.	.	.	.	.	.	.
.	4D\	.	.	.	4D/	et	8A/yy	.	.	.	.	.	.	.
.	.	.	.	.	.	.	16G/LL	se-	.	.	.	.	.	.
.	.	.	.	.	.	.	16F#/JJ	.	.	.	.	.	.	.
=112	=112	=112	=112	=112	=112	=112	=112	=112	=112	=112	=112	=112	=112	=112
!	!	!LO:N:vis=00	!LO:N:vis=00	!	!	!	!	!	!	!	!	!	!	!
2.ryy	4G\	0.r	0.r	.	8D\L	se-	[2B\	.	2.ryy	.	2.ryy	.	.	.
.	.	.	.	.	16E\L	.	.	.	.	.	.	.	.	.
.	.	.	.	.	16F#\JJ	.	.	.	.	.	.	.	.	.
.	4G\	.	.	.	2E\	.	.	.	.	.	.	.	.	.
.	4G\	.	.	.	.	.	16B\LL]	.	.	.	.	.	.	.
.	.	.	.	.	.	.	16c#\J	.	.	.	.	.	.	.
.	.	.	.	.	.	.	8d\J	.	.	.	.	.	.	.
!	!	!	!	!	!	!	!LO:LB:g=original	!	!	!	!	!	!	!
=113	=113	=113	=113	=113	=113	=113	=113	=113	=113	=113	=113	=113	=113	=113
!	!	!	!	!	!	!	!	!	!	!	!	!	!LO:N:vis=00	!LO:N:vis=00
2.ryy	4A\	.	.	.	8E\L	.	[2c#\	.	2.ryy	.	2.ryy	.	0.r	0.r
.	.	.	.	.	16F#\L	.	.	.	.	.	.	.	.	.
.	.	.	.	.	16G\JJ	.	.	.	.	.	.	.	.	.
.	4A\	.	.	.	2F#\	.	.	.	.	.	.	.	.	.
.	4A\	.	.	.	.	.	16c#\LL]	.	.	.	.	.	.	.
.	.	.	.	.	.	.	16d\J	.	.	.	.	.	.	.
.	.	.	.	.	.	.	8e\J	.	.	.	.	.	.	.
=114	=114	=114	=114	=114	=114	=114	=114	=114	=114	=114	=114	=114	=114	=114
2.ryy	4B\	.	.	.	8F#\L	.	[2d\	.	2.ryy	.	2.ryy	.	.	.
.	.	.	.	.	16G\L	.	.	.	.	.	.	.	.	.
.	.	.	.	.	16A\JJ	.	.	.	.	.	.	.	.	.
.	4B\	.	.	.	2G\	.	.	.	.	.	.	.	.	.
!	!LO:LB:g=original	!	!	!	!	!	!	!	!	!	!	!	!	!
.	4B\	.	.	.	.	.	16d\LL]	.	.	.	.	.	.	.
.	.	.	.	.	.	.	16c#\J	.	.	.	.	.	.	.
.	.	.	.	.	.	.	8B\J	.	.	.	.	.	.	.
=115	=115	=115	=115	=115	=115	=115	=115	=115	=115	=115	=115	=115	=115	=115
2.ryy	4c#\	.	.	.	8G\L	.	4.e\	.	2.ryy	.	2.ryy	.	.	.
.	.	.	.	.	16A\L	.	.	.	.	.	.	.	.	.
.	.	.	.	.	16B\JJ	.	.	.	.	.	.	.	.	.
.	4c#\	.	.	.	4A\	.	.	.	.	.	.	.	.	.
.	.	.	.	.	.	.	8e\	-mi-	.	.	.	.	.	.
.	4c#\	.	.	.	8G\	-mi-	4e\	-ni	.	.	.	.	.	.
.	.	.	.	.	8G\	-ni	.	.	.	.	.	.	.	.
=116	=116	=116	=116	=116	=116	=116	=116	=116	=116	=116	=116	=116	=116	=116
!	!	!LO:N:vis=0	!LO:N:vis=0	!	!	!	!	!	!	!	!	!	!	!
2.ryy	4d\	1.r	1.r	.	2F#\	e-	4e\	e-	2.ryy	.	2.ryy	.	.	.
.	4d\	.	.	.	.	.	8d\L	.	.	.	.	.	.	.
.	.	.	.	.	.	.	8c#\J	.	.	.	.	.	.	.
.	4D\	.	.	.	4F#\	-jus	4d\	-jus	.	.	.	.	.	.
=117	=117	=117	=117	=117	=117	=117	=117	=117	=117	=117	=117	=117	=117	=117
2.ryy	4G\	.	.	.	(8G\L	in	8e\L	in	2.ryy	.	2.ryy	.	2.r	2.r
.	.	.	.	.	8F#\J)	.	8d\J	.	.	.	.	.	.	.
!	!	!	!	!	!	!	!LO:LB:g=original	!	!	!	!	!	!	!
.	4A\	.	.	.	4.E\	sae-	4.c#\	sae-	.	.	.	.	.	.
.	4AA/	.	.	.	.	.	.	.	.	.	.	.	.	.
.	.	.	.	.	8F#\	-cu-	8c#\	-cu-	.	.	.	.	.	.
!	!	!	!LO:LB:g=original	!	!	!	!	!	!	!	!	!	!	!LO:LB:g=original
=118	=118	=118	=118	=118	=118	=118	=118	=118	=118	=118	=118	=118	=118	=118
!	!	!	!	!	!	!	!	!	!	!	!	!	!LO:TX:t=P:problem:brakująca pauza	!
2.ryy	4D\	4r	4r	.	4F#\	-la	4d\	-la.	2.ryy	.	2.ryy	.	4ryy	4r
.	4r	8r	8r	.	4r	.	4r	.	.	.	.	.	8r	8r
.	.	8aa\L	8ff#\L	.	.	.	.	.	.	.	.	.	8ff#\L	8aa\L
!	!LO:TX:a:t=Da capo ad Signum	!	!	!	!	!	!	!	!	!	!	!	!	!
.	4D\	8aa\	8ee\	.	4r	.	4r	.	.	.	.	.	8ff#\	8aa\
.	.	8aa\J	8dd\J	.	.	.	.	.	.	.	.	.	8ff#\J	8aa\J
!	!	!	!	!	!LO:LB:g=original	!	!	!	!	!	!	!	!	!
=119	=119	=119	=119	=119	=119	=119	=119	=119	=119	=119	=119	=119	=119	=119
!	!	!	!	!	!	!	!LO:TX:a:t=7	!	!	!	!	!	!	!
!	!	!	!	!	!LO:N:vis=00	!	!LO:N:vis=00	!	!	!	!	!	!	!
2.ryy	4G\yy	16aa\LL	16bb\LL	.	0.r	.	0.r	.	2.ryy	.	2.ryy	.	4dd\	4dd\
.	.	16gg\	16bb\	.	.	.	.	.	.	.	.	.	.	.
.	.	16gg\	16bb\	.	.	.	.	.	.	.	.	.	.	.
.	.	16gg\JJ	16bb\JJ	.	.	.	.	.	.	.	.	.	.	.
.	4G\yy	16gg\LL	16bb\LL	.	.	.	.	.	.	.	.	.	4dd\	4dd\
.	.	16gg\	16bb\	.	.	.	.	.	.	.	.	.	.	.
.	.	16gg\	16bb\	.	.	.	.	.	.	.	.	.	.	.
.	.	16gg\JJ	16bb\JJ	.	.	.	.	.	.	.	.	.	.	.
.	4G\yy	16gg\LL	16bb\LL	.	.	.	.	.	.	.	.	.	4dd\	4dd\
.	.	16gg\	16bb\	.	.	.	.	.	.	.	.	.	.	.
.	.	16gg\	16bb\	.	.	.	.	.	.	.	.	.	.	.
.	.	16gg\JJ	16bb\JJ	.	.	.	.	.	.	.	.	.	.	.
!	!	!LO:LB:g=original	!	!	!	!	!	!	!	!	!	!	!	!
=120	=120	=120	=120	=120	=120	=120	=120	=120	=120	=120	=120	=120	=120	=120
2.ryy	4D\yy	16gg\LL	16aa\LL	.	.	.	.	.	2.ryy	.	2.ryy	.	8dd\L	8dd\L
.	.	16gg\	16aa\	.	.	.	.	.	.	.	.	.	.	.
.	.	16gg\	16aa\	.	.	.	.	.	.	.	.	.	8ff#\	8aa\
.	.	16gg\JJ	16aa\JJ	.	.	.	.	.	.	.	.	.	.	.
.	4D\yy	16ff#\LL	16aa\LL	.	.	.	.	.	.	.	.	.	8ff#\	8aa\
.	.	16ff#\	16aa\	.	.	.	.	.	.	.	.	.	.	.
.	.	16ff#\	16aa\	.	.	.	.	.	.	.	.	.	8ff#\	8aa\
.	.	16ff#\JJ	16aa\JJ	.	.	.	.	.	.	.	.	.	.	.
.	4D\yy	16ff#\LL	16aa\LL	.	.	.	.	.	.	.	.	.	8ff#\	8aa\
.	.	16ff#\	16aa\	.	.	.	.	.	.	.	.	.	.	.
.	.	16ff#\	16aa\	.	.	.	.	.	.	.	.	.	8ff#\J	8aa\J
.	.	16ff#\JJ	16aa\JJ	.	.	.	.	.	.	.	.	.	.	.
=121	=121	=121	=121	=121	=121	=121	=121	=121	=121	=121	=121	=121	=121	=121
2.ryy	4E\yy	16ff#\LL	16gg\LL	.	.	.	.	.	2.ryy	.	2.ryy	.	16ee\LL	8gg\L
.	.	16ee\	16gg\	.	.	.	.	.	.	.	.	.	16ee\J	.
.	.	16ee\	16gg\	.	.	.	.	.	.	.	.	.	8ee\	8gg\
.	.	16ee\JJ	16gg\JJ	.	.	.	.	.	.	.	.	.	.	.
*	*	*tremolo	*	*	*	*	*	*	*	*	*	*	*	*
.	4ryy	16ee\LL	16gg\LL	.	.	.	.	.	.	.	.	.	8ee\	8gg\
.	.	16ee\	16gg\	.	.	.	.	.	.	.	.	.	.	.
.	.	16ee\	16gg\	.	.	.	.	.	.	.	.	.	8ee\	8gg\
.	.	16ee\JJ	16gg\JJ	.	.	.	.	.	.	.	.	.	.	.
.	4A\yy	16ee\LL	16gg\LL	.	.	.	.	.	.	.	.	.	8ee\	8gg\
.	.	16ee\	16gg\	.	.	.	.	.	.	.	.	.	.	.
.	.	16ee\	16gg\	.	.	.	.	.	.	.	.	.	8ee\J	8gg\J
.	.	16ee\JJ	16gg\JJ	.	.	.	.	.	.	.	.	.	.	.
*	*	*Xtremolo	*	*	*	*	*	*	*	*	*	*	*	*
!	!	!	!LO:LB:g=original	!	!	!	!	!	!	!	!	!	!LO:LB:g=original	!
=122	=122	=122	=122	=122	=122	=122	=122	=122	=122	=122	=122	=122	=122	=122
2.ryy	4D\yy	8dd\	8ff#\	.	.	.	.	.	2.ryy	.	2.ryy	.	8dd\	8ff#\
.	.	4ff#\	4aa\	.	.	.	.	.	.	.	.	.	4ff#\	4aa\
.	4ryy	.	.	.	.	.	.	.	.	.	.	.	.	.
.	.	4dd\	4ff#\	.	.	.	.	.	.	.	.	.	4dd\	4ff#\
.	4ryy	.	.	.	.	.	.	.	.	.	.	.	.	.
.	.	[8a/	8dd\	.	.	.	.	.	.	.	.	.	8a/	8dd\
=123	=123	=123	=123	=123	=123	=123	=123	=123	=123	=123	=123	=123	=123	=123
!	!	!	!	!	!LO:N:vis=0	!	!LO:N:vis=0	!	!	!	!	!	!	!
2.ryy	4D\yy	8a/]	8dd\	.	1.r	.	1.r	.	2.ryy	.	2.ryy	.	8a/	8dd\
.	.	4f#/	4a/	.	.	.	.	.	.	.	.	.	4f#/	4a\
.	4ryy	.	.	.	.	.	.	.	.	.	.	.	.	.
.	.	4d/	4f#/	.	.	.	.	.	.	.	.	.	4d/	4f#/
.	4ryy	.	.	.	.	.	.	.	.	.	.	.	.	.
.	.	8f#/	8a/	.	.	.	.	.	.	.	.	.	8f#/	8a/
=124	=124	=124	=124	=124	=124	=124	=124	=124	=124	=124	=124	=124	=124	=124
2.ryy	8D\Lyy	8f#/L	8dd\L	.	.	.	.	.	2.ryy	.	2.ryy	.	8f#/L	8dd\L
.	8G\Jyy	8g/J	8ee\J	.	.	.	.	.	.	.	.	.	8a/J	8ee\J
.	4A\yy	4f#/	4a/	.	.	.	.	.	.	.	.	.	4dd\	4ff#\
.	4AA/yy	4e/	4cc#\	.	.	.	.	.	.	.	.	.	4a/	8ee\L
.	.	.	.	.	.	.	.	.	.	.	.	.	.	8dd\J
=125	=125	=125	=125	=125	=125	=125	=125	=125	=125	=125	=125	=125	=125	=125
!	!	!	!	!	!	!	!	!	!	!	!	!	!	!LO:TX:t=P:problem:takt niewidoczny
2.ryy	4D\yy	2.f#/	4dd\	.	2.r	.	2.r	.	2.ryy	.	2.ryy	.	4f#/	2dd\yy
.	4ryy	.	4r	.	.	.	.	.	.	.	.	.	4r	.
.	4ryy	.	4r	.	.	.	.	.	.	.	.	.	4r	4ryy
!	!	!LO:LB:g=original	!	!	!	!	!	!	!	!	!	!	!	!LO:LB:g=original
=126||	=126||	=126||	=126||	=126||	=126||	=126||	=126||	=126||	=126||	=126||	=126||	=126||	=126||	=126||
*k[f#]	*k[f#]	*k[f#]	*k[f#]	*	*k[f#]	*	*k[f#]	*	*k[f#]	*	*k[f#]	*	*k[f#]	*k[f#]
*M4/4	*M4/4	*M4/4	*M4/4	*	*M4/4	*	*M4/4	*	*M4/4	*	*M4/4	*	*M4/4	*M4/4
*met(c)	*met(c)	*met(c)	*met(c)	*	*met(c)	*	*met(c)	*	*met(c)	*	*met(c)	*	*met(c)	*met(c)
!	!LO:TX:a:i:t=Ada(gio)&colon; Solo	!	!	!	!	!	!	!	!	!	!LO:LB:g=original	!	!	!LO:TX:a:i:t=Gloria\nTacet
!	!LO:TX:b:t=Gloria	!LO:TX:a:i:t=Gloria Tacet	!LO:TX:a:i:t=Gloria \n Tacet	!	!LO:TX:a:i:t=Gloria Tacet	!	!LO:TX:a:i:t=Gloria Tacet	!	!LO:TX:a:B:t=adagio	!	!LO:TX:a:B:t=adagio	!	!LO:TX:a:i:t=Gloria Tacet	!
1ryy	8G\L	1ryy	1ryy	.	1ryy	.	1ryy	.	4b\	Glo-	4dd\	Glo-	1ryy	1ryy
.	8G\	.	.	.	.	.	.	.	.	.	.	.	.	.
.	8G\	.	.	.	.	.	.	.	8g\	-ri-	8b\	-ri-	.	.
.	8G\J	.	.	.	.	.	.	.	8ccn\	-a	8ee\	-a	.	.
.	4G\	.	.	.	.	.	.	.	8b\L	Pa-	8dd\L	Pa-	.	.
.	.	.	.	.	.	.	.	.	8a\J	.	8ccn\J	.	.	.
.	8r	.	.	.	.	.	.	.	8g\	-tri	8b\	-tri	.	.
.	8G\	.	.	.	.	.	.	.	8cc\	et	8ee\	et	.	.
=127	=127	=127	=127	=127	=127	=127	=127	=127	=127	=127	=127	=127	=127	=127
1ryy	8G\L	1ryy	1ryy	.	1ryy	.	1ryy	.	4.b\	Fi-	4.dd\	Fi-	1ryy	1ryy
.	8G\	.	.	.	.	.	.	.	.	.	.	.	.	.
.	8D\	.	.	.	.	.	.	.	.	.	.	.	.	.
.	8D\J	.	.	.	.	.	.	.	8a\	-li-	8xncc\	-li-	.	.
.	8G\L	.	.	.	.	.	.	.	4g\	-o	4b\	-o	.	.
.	8G\	.	.	.	.	.	.	.	.	.	.	.	.	.
.	8G\	.	.	.	.	.	.	.	8g\	et	8b\	et	.	.
.	8G\J	.	.	.	.	.	.	.	16f#\LL	Spi-	16a\LL	Spi-	.	.
.	.	.	.	.	.	.	.	.	16g\JJ	.	16b\JJ	.	.	.
=128	=128	=128	=128	=128	=128	=128	=128	=128	=128	=128	=128	=128	=128	=128
1ryy	8D\L	1ryy	1ryy	.	1ryy	.	1ryy	.	4a\	-ri-	4xncc\	-ri-	1ryy	1ryy
.	8D\	.	.	.	.	.	.	.	.	.	.	.	.	.
.	8D\	.	.	.	.	.	.	.	8g\	-tu-	8b\	-tu-	.	.
.	8D\J	.	.	.	.	.	.	.	8g\	-i	8b\	-i	.	.
!	!	!	!	!	!	!	!	!	!LO:LB:g=original	!	!LO:LB:g=original	!	!	!
*	*tremolo	*	*	*	*	*	*	*	*	*	*	*	*	*
.	8D\L	.	.	.	.	.	.	.	4f#\	San-	4a\	San-	.	.
.	8D\	.	.	.	.	.	.	.	.	.	.	.	.	.
.	8D\	.	.	.	.	.	.	.	4g\	.	4b\	.	.	.
.	8D\J	.	.	.	.	.	.	.	.	.	.	.	.	.
*	*Xtremolo	*	*	*	*	*	*	*	*	*	*	*	*	*
=129	=129	=129	=129	=129	=129	=129	=129	=129	=129	=129	=129	=129	=129	=129
1ryy	8D\L	1ryy	1ryy	.	1ryy	.	1ryy	.	4f#\	.	4a\	.	1ryy	1ryy
.	8D\	.	.	.	.	.	.	.	.	.	.	.	.	.
.	8D\	.	.	.	.	.	.	.	4e\	.	4cc#X\	.	.	.
.	8D\J	.	.	.	.	.	.	.	.	.	.	.	.	.
.	4D\	.	.	.	.	.	.	.	4f#\	-cto.	4dd\	-cto.	.	.
.	4r	.	.	.	.	.	.	.	4r	.	4r	.	.	.
!	!LO:LB:g=original	!	!LO:LB:g=original	!	!	!	!LO:PB:g=original	!	!LO:LB:g=original	!	!	!	!LO:LB:g=original	!
=130||	=130||	=130||	=130||	=130||	=130||	=130||	=130||	=130||	=130||	=130||	=130||	=130||	=130||	=130||
*k[f#c#]	*k[f#c#]	*k[f#c#]	*k[f#c#]	*	*k[f#c#]	*	*k[f#c#]	*	*k[f#c#]	*	*k[f#c#]	*	*k[f#c#]	*k[f#c#]
*M2/2	*M2/2	*M2/2	*M2/2	*	*M2/2	*	*M2/2	*	*M2/2	*	*M2/2	*	*M2/2	*M2/2
*met(c|)	*met(c|)	*met(c|)	*met(c|)	*	*met(c|)	*	*met(c|)	*	*met(c|)	*	*met(c|)	*	*met(c|)	*met(c|)
!	!	!	!LO:TX:b:i:t=Sicut erat	!	!	!	!	!	!	!	!	!	!	!
!	!LO:TX:b:i:t=Sicut erat	!	!LO:TX:a:t=13	!	!	!	!LO:TX:a:t=4	!	!	!	!	!	!	!
*	*	*	*	*	*	*	*	*	*	*	*met(2)	*	*	*
!	!	!	!	!	!	!	!	!	!	!	!LO:TX:a:B:t=Vivace	!	!LO:TX:b:i:t=Sicut erat	!LO:TX:b:i:t=Sicut erat
1ryy	4r	00r	00r	.	4r	.	00r	.	00r	.	00r	.	00r	00r
.	2D\	.	.	.	2D/	Si-	.	.	.	.	.	.	.	.
.	4D\	.	.	.	4D/	cut	.	.	.	.	.	.	.	.
=131	=131	=131	=131	=131	=131	=131	=131	=131	=131	=131	=131	=131	=131	=131
1ryy	1E	.	.	.	1E	e-	.	.	.	.	.	.	.	.
=132	=132	=132	=132	=132	=132	=132	=132	=132	=132	=132	=132	=132	=132	=132
1ryy	4D\	.	.	.	4D\	-rat	.	.	.	.	.	.	.	.
.	2G\	.	.	.	2G\	in	.	.	.	.	.	.	.	.
.	4F#\	.	.	.	4F#\	prin-	.	.	.	.	.	.	.	.
=133	=133	=133	=133	=133	=133	=133	=133	=133	=133	=133	=133	=133	=133	=133
1ryy	2E\	.	.	.	2E\	-ci-	.	.	.	.	.	.	.	.
.	2A\	.	.	.	2A\	-pi-	.	.	.	.	.	.	.	.
=134	=134	=134	=134	=134	=134	=134	=134	=134	=134	=134	=134	=134	=134	=134
*	*^	*	*	*	*	*	*	*	*	*	*	*	*	*
1ryy	4r	2F#\	00r	00r	.	2F#\	-o	4r	.	00r	.	00r	.	00r	00r
.	2A/	.	.	.	.	.	.	2A\	Si-	.	.	.	.	.	.
.	.	2ryy	.	.	.	2r	.	.	.	.	.	.	.	.	.
.	4A/	.	.	.	.	.	.	4A\	cut	.	.	.	.	.	.
=135	=135	=135	=135	=135	=135	=135	=135	=135	=135	=135	=135	=135	=135	=135	=135
1ryy	1B	4r	.	.	.	4r	.	1B	e-	.	.	.	.	.	.
.	.	4G\	.	.	.	4G\	et	.	.	.	.	.	.	.	.
.	.	4G\	.	.	.	4F#\	nunc	.	.	.	.	.	.	.	.
.	.	4G\	.	.	.	4G\	et	.	.	.	.	.	.	.	.
!	!	!	!	!	!	!LO:LB:g=original	!	!	!	!	!	!	!	!	!
=136	=136	=136	=136	=136	=136	=136	=136	=136	=136	=136	=136	=136	=136	=136	=136
1ryy	4A/	4F#\	.	.	.	4F#\	sem-	4A\	-rat	.	.	.	.	.	.
.	2d/	4D\	.	.	.	4D/	.	2d\	in	.	.	.	.	.	.
.	.	4E\	.	.	.	4E/	.	.	.	.	.	.	.	.	.
.	4c#/	4F#\	.	.	.	4F#/	-per	4c#\	prin-	.	.	.	.	.	.
!	!LO:LB:g=original	!LO:LB:g=original	!	!	!	!	!	!	!	!	!	!	!	!	!
=137	=137	=137	=137	=137	=137	=137	=137	=137	=137	=137	=137	=137	=137	=137	=137
1ryy	2B/	4G\	.	.	.	4G\	.	2B\	-ci-	.	.	.	.	.	.
.	.	4F#\	.	.	.	4F#\	et	.	.	.	.	.	.	.	.
.	2e/	4G\	.	.	.	4G\	in	2e\	-pi-	.	.	.	.	.	.
.	.	4E\	.	.	.	4E\	.	.	.	.	.	.	.	.	.
=138	=138	=138	=138	=138	=138	=138	=138	=138	=138	=138	=138	=138	=138	=138	=138
1ryy	4A/	2.F#\	1r	00r	.	2.F#\	sae-	4A\	-o	1r	.	00r	.	00r	00r
.	4A/	.	.	.	.	.	.	4A\	et	.	.	.	.	.	.
.	4B/	.	.	.	.	.	.	4B\	nunc	.	.	.	.	.	.
.	4c#/	4E\	.	.	.	4E\	-cu-	4c#\	et	.	.	.	.	.	.
!	!	!	!	!	!	!	!	!LO:LB:g=original	!	!	!	!	!	!	!
=139	=139	=139	=139	=139	=139	=139	=139	=139	=139	=139	=139	=139	=139	=139	=139
1ryy	4d/	4D\	4r	.	.	4D\	-la	4d\	sem-	4r	.	.	.	.	.
.	4D\	2.ryy	2d/	.	.	4D\	sae-	4F#/	.	2d\	Si-	.	.	.	.
.	4F#\	.	.	.	.	4F#\	.	4A/	.	.	.	.	.	.	.
.	4D\	.	4d/	.	.	4D\	-cu-	4d\	.	4d\	-cut	.	.	.	.
*	*v	*v	*	*	*	*	*	*	*	*	*	*	*	*	*
=140	=140	=140	=140	=140	=140	=140	=140	=140	=140	=140	=140	=140	=140	=140
1ryy	4A\	1e	.	.	4A\	-lo-	(2d\	.	1e	e-	.	.	.	.
.	4G\	.	.	.	4G\	.	.	.	.	.	.	.	.	.
.	4A\	.	.	.	4A\	.	2c#\)	.	.	.	.	.	.	.
.	4AA/	.	.	.	4AA/	.	.	.	.	.	.	.	.	.
=141	=141	=141	=141	=141	=141	=141	=141	=141	=141	=141	=141	=141	=141	=141
1ryy	2D\	4d/	.	.	2D/	-rum	2d\	-per	4d\	-rat	.	.	.	.
.	.	2g/	.	.	.	.	.	.	2g\	in	.	.	.	.
.	4r	.	.	.	4r	.	4r	.	.	.	.	.	.	.
.	4BB/	4f#/	.	.	4BB/	a-	4d\	et	4f#\	prin-	.	.	.	.
=142	=142	=142	=142	=142	=142	=142	=142	=142	=142	=142	=142	=142	=142	=142
1ryy	4C#/	2e/	1r	.	4C#/	.	4A\	in	2e\	-ci-	1r	.	00r	00r
.	4AA/	.	.	.	4AA/	.	4c#\	.	.	.	.	.	.	.
.	4BB/	2a/	.	.	4BB/	.	4d\	sae-	2a\	-pi-	.	.	.	.
.	4C#/	.	.	.	4C#/	.	4e\	-cu-	.	.	.	.	.	.
=143	=143	=143	=143	=143	=143	=143	=143	=143	=143	=143	=143	=143	=143	=143
1ryy	2D\	4f#/	4r	.	2D/	men	2A\	-la	4f#\	-o	4r	.	.	.
.	.	4f#/	2a/	.	.	.	.	.	(4f#\	si-	2a\	Si-	.	.
!	!	!LO:LB:g=original	!	!	!	!	!	!	!	!	!	!	!	!
.	2r	4d/	.	.	2r	.	2r	.	4d\)	.	.	.	.	.
.	.	4f#/	4a/	.	.	.	.	.	4f#\	-cut	4a\	-cut	.	.
!	!	!	!	!	!	!	!	!	!LO:LB:g=original	!	!	!	!	!
=144	=144	=144	=144	=144	=144	=144	=144	=144	=144	=144	=144	=144	=144	=144
!	!	!	!	!	!	!	!LO:TX:a:t=4	!	!	!	!	!	!	!
1ryy	00r	4g/	1bM	.	00r	.	00r	.	(4g\	e-	1b	e-	.	.
.	.	4f#/	.	.	.	.	.	.	4f#\)	.	.	.	.	.
.	.	4g/	.	.	.	.	.	.	(4g\	-rat	.	.	.	.
.	.	4e/	.	.	.	.	.	.	4e\)	.	.	.	.	.
=145	=145	=145	=145	=145	=145	=145	=145	=145	=145	=145	=145	=145	=145	=145
1ryy	.	4f#/	4a/	.	.	.	.	.	(4f#\	in	4a\	-rat	.	.
.	.	4d/	2dd\	.	.	.	.	.	4d\)	.	2dd\	in	.	.
.	.	4e/	.	.	.	.	.	.	(4e\	prin-	.	.	.	.
.	.	4f#/	4cc#\	.	.	.	.	.	4f#\)	.	4cc#\	prin-	.	.
=146	=146	=146	=146	=146	=146	=146	=146	=146	=146	=146	=146	=146	=146	=146
1ryy	.	4g/	2b\	.	.	.	.	.	(4g\	-ci-	2cc#\	-ci-	0r	0r
.	.	4f#/	.	.	.	.	.	.	4f#\)	.	.	.	.	.
.	.	4g/	2ee\	.	.	.	.	.	(4g\	-pi-	2ee\	-pi-	.	.
.	.	4e/	.	.	.	.	.	.	4e\)	.	.	.	.	.
=147	=147	=147	=147	=147	=147	=147	=147	=147	=147	=147	=147	=147	=147	=147
1ryy	.	4f#/	4a/	.	.	.	.	.	4f#\	-o	4a\	-o	.	.
.	.	4f#/	4a/	.	.	.	.	.	4f#\	et	4a\	et	.	.
.	.	4g/	4b/	.	.	.	.	.	4g\	nunc	4b\	nunc	.	.
.	.	4e/	4cc#/	.	.	.	.	.	4e\	et	4cc#\	et	.	.
!	!LO:LB:g=original	!	!	!	!LO:LB:g=original	!	!LO:LB:g=original	!	!	!	!	!	!	!
=148	=148	=148	=148	=148	=148	=148	=148	=148	=148	=148	=148	=148	=148	=148
!	!	!	!	!	!	!	!	!	!	!	!	!	!	!LO:TX:t=P:problem:brakująca pauza
1ryy	4r	4f#/	4dd\	.	4r	.	4r	.	4f#\	sem-	4dd\	sem-	4r	4ryy
.	2D\	4dd\	4ff#\	.	2D/	et	2A\	et	4f#\	-per	4dd\	-per	2ff#\	2aa\
!	!	!	!	!	!	!	!	!	!	!	!LO:TX:t=P:problem:tekst przesuniety	!	!	!
.	.	4ff#\	4aa\	.	.	.	.	.	4f#\	et	4dd\	et	.	.
.	4D\	4dd\	4ff#\	.	4D/	in	4d\	in	4f#\	in	4dd\	in	4ff#\	4aa\
!	!	!	!LO:LB:g=original	!	!	!	!	!	!	!	!LO:LB:g=original	!	!	!
=149	=149	=149	=149	=149	=149	=149	=149	=149	=149	=149	=149	=149	=149	=149
1ryy	1E	2dd\	2.ggM\	.	2E\	sae-	2B\	sae-	2.g\	sae-	2dd\	sae-	2.ee\	2.gg\
.	.	2cc#\	.	.	2E\	-cu-	2c#\	-cu-	.	.	2cc#\	-cu-	.	.
.	.	.	4gg\	.	.	.	.	.	4g\	-cu-	.	.	4a/	4gg\
!	!	!LO:LB:g=original	!	!	!	!	!	!	!LO:LB:g=original	!	!	!	!	!
=150	=150	=150	=150	=150	=150	=150	=150	=150	=150	=150	=150	=150	=150	=150
1ryy	4D\	4dd\	4ff#\	.	4D\	-la	4A\	-la	4f#\	-la	4dd\	-la	4dd\	4ff#\
.	2G\	4b\	4dd\	.	2G\	sae-	4B\	.	(4d\	sae-	(4b\	sae-	4dd\	4dd\
.	.	4cc#\	4ee\	.	.	.	4A\	sae-	4e\)	.	4cc#\)	.	4a/	4ee\
.	4F#\	4dd\	4ff#\	.	4F#\	-cu-	4A\	-cu-	4f#\	-cu-	4dd\	-cu-	4dd\	4ff#\
=151	=151	=151	=151	=151	=151	=151	=151	=151	=151	=151	=151	=151	=151	=151
1ryy	2E\	2dd\	2.ggM\	.	2E\	-lo-	2B\	-lo-	2g\	-lo-	2dd\	-lo-	2.ee\	2.gg\
.	2A\	2cc#\	.	.	2A\	-rum	2c#\	-rum	2g\	-rum	2cc#\	-rum	.	.
.	.	.	4gg\	.	.	.	.	.	.	.	.	.	4ee\	4gg\
=152	=152	=152	=152	=152	=152	=152	=152	=152	=152	=152	=152	=152	=152	=152
1ryy	4D\	4dd\	4ff#\	.	4D\	a-	2.A\	a-	2f#\	a-	4dd\	a-	4dd\	4ff#\
.	2d\	2a/	2ff#\	.	2d\	.	.	.	.	.	2a\	.	4dd\	4ff#\
.	.	.	.	.	.	.	.	.	2a\	.	.	.	4dd\	4aa\
.	4c#\	4ee\	4aa\	.	4c#\	.	4A\	-men	.	.	4ee\	.	4ee\	4aa\
=153	=153	=153	=153	=153	=153	=153	=153	=153	=153	=153	=153	=153	=153	=153
1ryy	2B\	2.dd\	2aa\	.	2B\	.	2d\	a-	2a\	.	1dd	.	2dd\	2aa\
.	2e\	.	2gg#X\	.	2e\	-men	2B\	.	2g#X\	.	.	.	2ee\	2gg#X\
.	.	4dd\	.	.	.	.	.	.	.	.	.	.	.	.
=154	=154	=154	=154	=154	=154	=154	=154	=154	=154	=154	=154	=154	=154	=154
1ryy	4A\	4cc#\	2.aa\	.	4A\	a-	4c#\	.	2.a\	.	2cc#\	-men	2.ee\	2.aa\
.	4A\	4cc#\	.	.	4A\	.	4e\	.	.	.	.	.	.	.
!	!	!	!	!	!	!	!LO:LB:g=original	!	!	!	!	!	!	!
.	4B\	4dd\	.	.	4B\	.	4d\	.	.	.	2r	.	.	.
.	4c#\	4ee\	4ggn\	.	4c#\	.	4c#\	.	4gn\	.	.	.	4ee\	4gg\
!	!	!	!	!	!	!	!	!	!	!	!	!	!	!LO:LB:g=original
=155	=155	=155	=155	=155	=155	=155	=155	=155	=155	=155	=155	=155	=155	=155
1ryy	4d\	4a/	4ff#\	.	4d\	-men	2B\	-men	2f#\	-men	4r	.	2dd\	2.ff#\
.	4r	4r	2dd\	.	4r	.	.	.	.	.	2dd\	a-	.	.
.	4r	4r	.	.	4r	.	4r	.	4r	.	.	.	2r	.
*	*	*	*	*	*	*	*	*	*	*ij	*	*	*	*
.	4d\	4dd\	4dd\	.	4d\	a-	[4d\	a-	4a\	a-	4dd\	-men	.	4ff#\
!	!LO:LB:g=original	!	!	!	!	!	!	!	!	!	!	!	!LO:LB:g=original	!
=156	=156	=156	=156	=156	=156	=156	=156	=156	=156	=156	=156	=156	=156	=156
1ryy	4A\	2dd\	1eeM	.	4A\	.	2d\]	.	1a	.	1ee	a-	2dd\	2.ee\
.	4G\	.	.	.	4G\	.	.	.	.	.	.	.	.	.
.	4A\	2cc#\	.	.	2A\	.	2c#\	.	.	.	.	.	2a/	.
.	4AA/	.	.	.	.	.	.	.	.	.	.	.	.	4ee\
!	!	!LO:LB:g=original	!LO:LB:g=original	!	!LO:LB:g=original	!	!	!	!	!	!LO:LB:g=original	!	!	!
=157	=157	=157	=157	=157	=157	=157	=157	=157	=157	=157	=157	=157	=157	=157
1ryy	4B\	4dd\	4dd\	.	4B\	.	4B\	.	4f#\	-men	4dd\	.	2dd\	2.dd\
.	4G\	4b\	2gg\	.	4G\	.	4B\	men	4r	.	2gg\	.	.	.
.	4A\	4cc#\	.	.	4A\	.	4c#\	a-	2r	.	.	.	2r	.
.	4B\	4dd\	4ff#\	.	4B\	.	4d\	.	.	.	4ff#\	.	.	4r
*	*	*	*	*	*	*	*	*	*	*Xij	*	*	*	*
!	!	!	!	!	!	!	!	!	!LO:LB:g=original	!	!	!	!	!
=158	=158	=158	=158	=158	=158	=158	=158	=158	=158	=158	=158	=158	=158	=158
1ryy	4c#\	4ee\	4ee\	.	4c#\	.	2e\	.	2.a\	a-	4ee\	.	1r	1r
.	4A\	4cc#\	2aa\	.	4A\	.	.	.	.	.	4cc#\	.	.	.
!	!	!	!	!	!	!	!LO:TX:a:t=a	!	!	!	!	!	!	!
.	4B\	4dd\	.	.	4B\	.	2G/	.	.	.	4dd\	.	.	.
.	4c#\	4ee\	4gg\	.	4c#\	.	.	.	4g\	.	4ee\	.	.	.
=159	=159	=159	=159	=159	=159	=159	=159	=159	=159	=159	=159	=159	=159	=159
1ryy	4d\	4a/	4ff#\	.	4d\	.	4A\	men	4f#\	.	4ff#\	.	4dd\	4ff#\
.	4D\	2dd\	4ff#\	.	4D/	.	4r	.	4f#\	.	2dd\	.	4dd\	4ff#\
.	4E\	.	4gg\	.	4E/	.	4r	.	4g\	.	.	.	4dd\	4gg\
.	4F#\	4cc#\	4aa\	.	4F#/	.	4d\	a-	4a\	.	4a\	.	4dd\	4aa\
!	!	!	!	!	!	!	!LO:LB:g=original	!	!	!	!	!	!	!
=160	=160	=160	=160	=160	=160	=160	=160	=160	=160	=160	=160	=160	=160	=160
1ryy	4G\	4b\	4bb\	.	4G\	.	4d\	-men	4d\	.	4b\	.	4dd\	4bb\
.	4E\	2ee\	4gg\	.	4E\	.	4r	.	4g\	.	2ee\	.	4ee\	4gg\
.	4F#\	.	4aa\	.	4F#\	.	4r	.	4a\	.	.	.	4ee\	4aa\
.	4G\	4dd\	4bb\	.	4G\	.	4e\	a-	4b\	.	4b\	.	4ee\	4bb\
=161	=161	=161	=161	=161	=161	=161	=161	=161	=161	=161	=161	=161	=161	=161
1ryy	4A\	4cc#\	4ccc#\	.	4A\	.	4e\	-men	4e\	.	4cc#\	.	4ee\	4ccc#\
.	4F#\	2ff#\	4aa\	.	4F#\	.	4r	.	4a\	.	2ff#\	.	4ff#\	4aa\
.	4G\	.	4bb\	.	4G\	.	4r	.	4b\	.	.	.	4ff#\	4bb\
.	4A\	4ee\	4ccc#\	.	4A\	.	4e\	a-	4cc#\	.	4cc#\	.	4ff#\	4ccc#\
=162	=162	=162	=162	=162	=162	=162	=162	=162	=162	=162	=162	=162	=162	=162
!	!	!	!LO:N:vis=16	!	!	!	!	!	!	!	!	!	!	!
1ryy	8B\L	2dd\	8ddd\L	.	8B\L	.	8d\L	.	2f#\	.	2dd\	.	2ff#\	2ddd\
!	!	!	!LO:N:vis=16	!	!	!	!	!	!	!	!	!	!	!
.	8A\	.	8ccc#\	.	8A\	.	8c#\	.	.	.	.	.	.	.
!	!	!	!LO:N:vis=16	!	!	!	!	!	!	!	!	!	!	!
.	8G\	.	8bb\	.	8G\	.	8B\	.	.	.	.	.	.	.
!	!	!	!LO:N:vis=16	!	!	!	!	!	!	!	!	!	!	!
.	8F#\J	.	8aa\J	.	8F#\J	.	8A\J	.	.	.	.	.	.	.
!	!LO:LB:g=original	!	!	!	!	!	!	!	!	!	!	!	!	!
.	4E\	8gg\L	8gg\L	.	4E\	.	2B\	.	4g\	.	8gg\L	.	2r	2r
.	.	8ff#\	8ff#\	.	.	.	.	.	.	.	8ff#\	.	.	.
.	4G\	8ee\	8ee\	.	4G\	.	.	.	4b\	.	8ee\	.	.	.
.	.	8dd\J	8dd\J	.	.	.	.	.	.	.	8dd\J	.	.	.
!	!	!	!LO:LB:g=original	!	!	!	!	!	!	!	!LO:LB:g=original	!	!	!
=163	=163	=163	=163	=163	=163	=163	=163	=163	=163	=163	=163	=163	=163	=163
1ryy	8A\L	4cc#\	4cc#\	.	8A\L	.	8c#\L	.	2a\	.	4cc#\	.	0r	0r
.	8G\	.	.	.	8G\	.	8B\	.	.	.	.	.	.	.
.	8F#\	4ee\	4ee\	.	8F#\	.	8A\	.	.	.	4ee\	.	.	.
.	8E\J	.	.	.	8E\J	.	8G\J	.	.	.	.	.	.	.
!	!	!LO:PB:g=original	!	!	!	!	!	!	!	!	!	!	!	!
.	4D\	8ff#\L	8ff#\L	.	4D\	.	2A\	.	4f#\	.	8ff#\L	.	.	.
.	.	8ee\	8ee\	.	.	.	.	.	.	.	8ee\	.	.	.
.	4F#\	8dd\	8dd\	.	4F#\	.	.	.	4a\	.	8dd\	.	.	.
.	.	8cc#\J	8cc#\J	.	.	.	.	.	.	.	8cc#\J	.	.	.
!	!	!	!	!	!	!	!	!	!LO:LB:g=original	!	!	!	!	!
=164	=164	=164	=164	=164	=164	=164	=164	=164	=164	=164	=164	=164	=164	=164
1ryy	2.G\	2b\	4b\	.	2.G\	-men	2B\	.	4d\	.	4b\	.	.	.
.	.	.	4ee\	.	.	.	.	.	4g\	.	4ee\	.	.	.
.	.	4cc#\	4a\	.	.	.	2A\	.	4e\	.	4cc#\	.	.	.
.	4F#\	4a\	4dd\	.	4F#\	a-	.	.	4f#\	.	4dd\	.	.	.
!	!	!	!	!	!LO:LB:g=original	!	!	!	!	!	!	!	!	!
=165	=165	=165	=165	=165	=165	=165	=165	=165	=165	=165	=165	=165	=165	=165
1ryy	2E\	1g	2dd\	.	2E\	.	2B\	.	1g	.	2dd\	.	1r	1r
.	2A\	.	2cc#m\	.	2A\	.	2c#\	.	.	.	2cc#\	.	.	.
!	!	!	!	!	!	!	!LO:LB:g=original	!	!	!	!	!	!	!
=166	=166	=166	=166	=166	=166	=166	=166	=166	=166	=166	=166	=166	=166	=166
1ryy	4D\	4f#/	4dd\	.	4D\	-men	4A\	.	4f#\	-men	4dd\	-men	4r	4r
.	4d\	2a/	4ff#\	.	4d\	a-	4A\	-men	4f#\	a-	4ff#\	a-	4dd\	4aa\
.	4c#\	.	4ee\	.	4c#\	.	(4c#\	a-	4a\	.	4ee\	.	4ee\	4aa\
.	4B\	4g#X/	4dd\	.	4B\	.	4d\)	.	4g#X\	.	4dd\	.	4dd\	4gg#X\
!	!	!	!	!	!	!	!	!	!	!	!	!	!	!LO:LB:g=original
=167	=167	=167	=167	=167	=167	=167	=167	=167	=167	=167	=167	=167	=167	=167
1ryy	4A\	4a/	4cc#\	.	4A\	.	4e\	.	4a\	.	4cc#\	.	4ee\	4aa\
.	4F#\	4a/	2dd\	.	4F#\	.	4A\	.	4a\	.	2dd\	.	4dd\	4aa\
.	4G\	4e/	.	.	4G\	.	4B\	.	2e\	.	.	.	4dd\	4ee\
.	4A\	4e/	4cc#\	.	4A\	.	4A\	.	.	.	4cc#\	.	4a\	4ee\
!	!	!	!	!	!	!	!	!	!	!	!LO:LB:g=original	!	!LO:LB:g=original	!
=168	=168	=168	=168	=168	=168	=168	=168	=168	=168	=168	=168	=168	=168	=168
!	!	!	!	!	!	!	!	!	!	!	!	!	!LO:TX:t=P:problem:brakujące takty?	!
1ryy	4D\	4f#/	4dd\	.	4D/	.	4A\	.	4f#\	.	4dd\	.	1ryy	4ff#\
.	4d\	2a/	4ff#\	.	4d\	.	4A\	-men	4f#\	.	4ff#\	.	.	4aa\
.	4c#\	.	4ee\	.	4c#\	.	4c#\	a-	4a\	.	4ee\	.	.	4aa\
.	4B\	4g#X/	4dd\	.	4B\	.	4d\	.	4g#X\	.	4dd\	.	.	4gg#X\
!	!	!	!LO:LB:g=original	!	!	!	!	!	!	!	!	!	!	!
=169	=169	=169	=169	=169	=169	=169	=169	=169	=169	=169	=169	=169	=169	=169
1ryy	4A\	4a/	4cc#\	.	4A\	.	4e\	.	4a\	.	4cc#\	.	1ryy	4aa\
.	4F#\	4a/	2dd\	.	4F#\	.	4A\	.	4a\	.	2dd\	.	.	4bb\
!	!LO:LB:g=original	!	!	!	!	!	!	!	!	!	!	!	!	!
.	4G\	4e/	.	.	4G\	.	4B\	.	(2e\	.	.	.	.	4ee\
.	4A\	4e/	4cc#\	.	4A\	.	4A\	.	.	.	4cc#\	.	.	4ee\
!	!	!	!	!	!	!	!	!	!LO:LB:g=original	!	!	!	!	!
=170	=170	=170	=170	=170	=170	=170	=170	=170	=170	=170	=170	=170	=170	=170
1ryy	4D\	4f#/	4dd\	.	4D\	.	4A\	-men	4f#\)	.	4cc#\	.	4dd\	4ff#\
!	!	!LO:LB:g=original	!	!	!	!	!	!	!	!	!	!	!	!
.	4F#\	4dd\	4aa\	.	4F#\	.	2A\	a-	4a\	.	2dd\	.	4dd\	4aa\
.	4E\	4dd\	4gg\	.	4E\	.	.	.	4gn\	.	.	.	4dd\	4gg\
.	4D\	4dd\	4ff#\	.	4D\	.	4A\	-men	4f#\	.	4dd\	.	4dd\	4ff#\
!	!	!	!	!	!	!	!LO:LB:g=original	!	!	!	!	!	!	!
=171	=171	=171	=171	=171	=171	=171	=171	=171	=171	=171	=171	=171	=171	=171
1ryy	1G	1dd	8bb\L	.	1G	.	1B	A-	1d	.	1dd	.	4dd\	4dd\
.	.	.	8dd\	.	.	.	.	.	.	.	.	.	.	.
.	.	.	8ee\	.	.	.	.	.	.	.	.	.	8dd\L	4dd\
.	.	.	8ff#\J	.	.	.	.	.	.	.	.	.	8dd\J	.
.	.	.	8gg\L	.	.	.	.	.	.	.	.	.	8dd\L	8dd\L
.	.	.	8bb\	.	.	.	.	.	.	.	.	.	8dd\	8dd\
.	.	.	8aa\	.	.	.	.	.	.	.	.	.	8dd\	8dd\
.	.	.	8gg\J	.	.	.	.	.	.	.	.	.	8dd\J	8dd\J
=172	=172	=172	=172	=172	=172	=172	=172	=172	=172	=172	=172	=172	=172	=172
1ryy	1D	1ff#	1aa	.	1D	-men	1A	-men.	1f#	men.	1dd	men.	1dd	1ff#
==	==	==	==	==	==	==	==	==	==	==	==	==	==	==
*-	*-	*-	*-	*-	*-	*-	*-	*-	*-	*-	*-	*-	*-	*-
!!!system-decoration: [(s1,s2)][(s3,s4,s5,s6)][(s7,s8,s9)] [(s10)]
!!!ENC: Filip Voros
!!!END: 2024-06-03
!!!ENC: Leszek Kubiak
!!!END: 2024-11-04
